;woodified gcode, see graph at the end - jeremie.francois@gmail.com - generated on 20170110-0056
M230 S0
M104 S205
M230 S1
M116
;FLAVOR:RepRap
;TIME:10459
;Generated with Cura_SteamEngine 2.3.0
M80 ; power on ATX
G4  P1000 ; sleep 1 second
M140 S60 ; set the bed temperature and continue on
G21 ;metric values
G91; relative positioning
G0 Z10; 10mm up
G90 ;absolute positioning
M82 ;set extruder to absolute mode
M107 ;start with the fan off
G28 X0 Y0 ;move X/Y to min endstops
G28 Z0 ;move Z to min endstops
G29 ;autobed
G1 Z15.0 F9000 ;move the platform down 15mm
M190 S60 ; set the bed temperature and wait
M109 S205.0; wait for the extruder temperature
G92 E0 ;zero the extruded length
G1 F200 E3 ;extrude 3mm of feed stock
G92 E0 ;zero the extruded length again
G1 F9000
M117 Imprimiendo...
;LAYER_COUNT:96
;LAYER:0
M107
G1 F900 E-6.5
G0 F5400 X69.226 Y107.802 Z.3
;TYPE:SKIRT
G1 F900 E0
G1 F1800 X73.766 Y104.965 E0.26709
G1 X74.126 Y104.758 E0.28781
G1 X75.177 Y104.205 E0.34706
G1 X75.498 Y104.049 E0.36486
G1 X80.351 Y101.878 E0.6301
G1 X80.912 Y101.663 E0.66007
G1 X85.623 Y100.137 E0.90713
G1 X86.214 Y99.98 E0.93764
G1 X89.805 Y99.237 E1.12059
G1 X90.04 Y99.194 E1.13251
G1 X93.32 Y98.66 E1.2983
G1 X93.668 Y98.614 E1.31581
G1 X96.15 Y98.368 E1.44025
G1 X96.551 Y98.343 E1.46029
G1 X99.855 Y98.254 E1.62519
G1 X100.142 Y98.254 E1.63951
G1 X103.728 Y98.341 E1.81847
G1 X104.144 Y98.366 E1.83926
G1 X106.646 Y98.614 E1.9647
G1 X106.973 Y98.656 E1.98115
G1 X109.784 Y99.103 E2.12315
G1 X110.024 Y99.147 E2.13532
G1 X114.103 Y99.979 E2.34301
G1 X114.698 Y100.135 E2.3737
G1 X119.446 Y101.661 E2.62251
G1 X119.929 Y101.841 E2.64823
G1 X123.465 Y103.349 E2.84002
G1 X123.869 Y103.541 E2.86233
G1 X126.765 Y105.06 E3.02548
G1 X127.064 Y105.228 E3.04259
G1 X129.593 Y106.759 E3.19008
G1 X129.885 Y106.949 E3.20746
G1 X132.248 Y108.588 E3.35094
G1 X132.46 Y108.743 E3.36404
G1 X134.303 Y110.154 E3.47984
G1 X134.662 Y110.453 E3.50315
G1 X138.011 Y113.492 E3.72877
G1 X138.569 Y114.077 E3.7691
G1 X142.664 Y119.045 E4.0903
G1 X142.967 Y119.448 E4.11546
G1 X145.14 Y122.628 E4.30761
G1 X145.339 Y122.942 E4.32616
G1 X146.583 Y125.051 E4.44832
G1 X146.736 Y125.327 E4.46406
G1 X148.138 Y128.043 E4.61655
G1 X148.314 Y128.417 E4.63717
G1 X149.614 Y131.468 E4.80263
G1 X149.722 Y131.742 E4.81732
G1 X150.246 Y133.177 E4.89354
G1 X150.342 Y133.463 E4.90859
G1 X151.464 Y137.138 E5.10029
G1 X151.583 Y137.594 E5.1238
G1 X152.39 Y141.342 E5.31508
G1 X152.448 Y141.659 E5.33115
G1 X152.737 Y143.514 E5.42482
G1 X152.784 Y143.9 E5.44422
G1 X153.123 Y147.877 E5.64335
G1 X153.141 Y148.204 E5.65969
G1 X153.192 Y150.121 E5.75536
G1 X153.189 Y150.515 E5.77502
G1 X153.019 Y154.404 E5.96923
G1 X152.994 Y154.736 E5.98584
G1 X152.763 Y156.967 E6.09774
G1 X152.724 Y157.265 E6.11273
G1 X152.285 Y160.041 E6.25295
G1 X152.193 Y160.499 E6.27626
G1 X151.188 Y164.601 E6.48696
G1 X151.108 Y164.893 E6.50206
G1 X150.559 Y166.703 E6.59643
G1 X150.478 Y166.948 E6.6093
G1 X149.267 Y170.366 E6.79021
G1 X148.996 Y171.004 E6.82479
G1 X147.254 Y174.481 E7.01882
G1 X147.067 Y174.823 E7.03826
G1 X144.81 Y178.64 E7.25949
G1 X144.602 Y178.967 E7.27883
G1 X143.033 Y181.245 E7.41683
G1 X142.786 Y181.577 E7.43747
G1 X140.749 Y184.111 E7.59968
G1 X140.505 Y184.394 E7.61832
G1 X138.293 Y186.798 E7.7813
G1 X138.035 Y187.06 E7.79965
G1 X135.676 Y189.308 E7.96222
G1 X135.367 Y189.582 E7.98282
G1 X132.682 Y191.787 E8.15616
G1 X132.359 Y192.033 E8.17641
G1 X129.441 Y194.094 E8.35464
G1 X129.052 Y194.345 E8.37774
G1 X125.688 Y196.326 E8.57251
G1 X125.409 Y196.48 E8.58841
G1 X123.74 Y197.339 E8.68206
G1 X123.407 Y197.497 E8.70045
G1 X118.466 Y199.642 E8.96918
G1 X117.779 Y199.888 E9.00559
G1 X115.7 Y200.484 E9.11349
G1 X115.459 Y200.548 E9.12593
G1 X109.581 Y201.953 E9.42744
G1 X109.125 Y202.042 E9.45062
G1 X108.425 Y202.149 E9.48595
G1 X107.917 Y202.203 E9.51144
G1 X103.596 Y202.464 E9.7274
G1 X103.385 Y202.473 E9.73794
G1 X99.409 Y202.563 E9.93636
G1 X98.978 Y202.556 E9.95786
G1 X93.365 Y202.251 E10.23831
G1 X93.117 Y202.232 E10.25072
G1 X91.44 Y202.066 E10.33479
G1 X90.657 Y201.932 E10.37442
G1 X83.794 Y200.248 E10.72698
G1 X83.387 Y200.131 E10.7481
G1 X81.535 Y199.525 E10.84532
G1 X81.004 Y199.321 E10.8737
G1 X77.141 Y197.605 E11.08459
G1 X76.794 Y197.436 E11.10384
G1 X73.554 Y195.721 E11.28674
G1 X73.286 Y195.57 E11.30208
G1 X71.53 Y194.513 E11.40434
G1 X71.194 Y194.294 E11.42435
G1 X67.84 Y191.932 E11.62901
G1 X67.483 Y191.659 E11.65143
G1 X64.663 Y189.314 E11.83441
G1 X64.368 Y189.05 E11.85416
G1 X61.92 Y186.703 E12.02335
G1 X61.621 Y186.393 E12.04484
G1 X59.388 Y183.895 E12.212
G1 X59.17 Y183.636 E12.22889
G1 X57.304 Y181.276 E12.37899
G1 X57.022 Y180.885 E12.40304
G1 X54.663 Y177.307 E12.61685
G1 X54.411 Y176.887 E12.64129
G1 X52.556 Y173.453 E12.83601
G1 X52.456 Y173.258 E12.84694
G1 X51.292 Y170.886 E12.97876
G1 X51.038 Y170.282 E13.01145
G1 X49.694 Y166.473 E13.21297
G1 X49.593 Y166.157 E13.22952
G1 X48.651 Y162.879 E13.39968
G1 X48.548 Y162.463 E13.42106
G1 X47.781 Y158.745 E13.61046
G1 X47.695 Y158.183 E13.63882
G1 X47.255 Y153.872 E13.85501
G1 X47.227 Y153.421 E13.87756
G1 X47.145 Y149.534 E14.07152
G1 X47.155 Y149.066 E14.09488
G1 X47.403 Y145.103 E14.29298
G1 X47.429 Y144.807 E14.3078
G1 X47.59 Y143.42 E14.37747
G1 X47.637 Y143.1 E14.3936
G1 X48.162 Y140.102 E14.54545
G1 X48.223 Y139.8 E14.56082
G1 X48.757 Y137.503 E14.67847
G1 X48.864 Y137.108 E14.69889
G1 X50.075 Y133.213 E14.90239
G1 X50.16 Y132.962 E14.91561
G1 X50.885 Y130.969 E15.02142
G1 X51.038 Y130.592 E15.04171
G1 X51.947 Y128.565 E15.15255
G1 X52.057 Y128.335 E15.16527
G1 X53.275 Y125.919 E15.30025
G1 X53.438 Y125.617 E15.31737
G1 X55.27 Y122.478 E15.4987
G1 X55.475 Y122.154 E15.51783
G1 X56.939 Y119.999 E15.6478
G1 X57.159 Y119.697 E15.66644
G1 X58.693 Y117.735 E15.79069
G1 X58.819 Y117.579 E15.8007
G1 X61.793 Y114.043 E16.03121
G1 X62.26 Y113.552 E16.06502
G1 X65.532 Y110.501 E16.28822
G1 X66.08 Y110.052 E16.32356
G1 X68.923 Y108.006 E16.49831
G1 X69.226 Y107.802 E16.51653
G0 F5400 X69.438 Y108.141
G1 F1800 X73.978 Y105.304 E16.78362
G1 X74.313 Y105.112 E16.80288
G1 X75.364 Y104.559 E16.86213
G1 X75.662 Y104.414 E16.87867
G1 X80.515 Y102.243 E17.14391
G1 X81.036 Y102.043 E17.17175
G1 X85.747 Y100.517 E17.41881
G1 X86.295 Y100.372 E17.44709
G1 X89.886 Y99.629 E17.63004
G1 X90.104 Y99.589 E17.64109
G1 X93.384 Y99.055 E17.80689
G1 X93.707 Y99.012 E17.82315
G1 X96.189 Y98.766 E17.94758
G1 X96.562 Y98.743 E17.96622
G1 X99.866 Y98.654 E18.13112
G1 X100.132 Y98.654 E18.14439
G1 X103.718 Y98.741 E18.32335
G1 X104.105 Y98.764 E18.34269
G1 X106.607 Y99.012 E18.46813
G1 X106.911 Y99.052 E18.48343
G1 X109.722 Y99.499 E18.62543
G1 X109.944 Y99.539 E18.63668
G1 X114.023 Y100.371 E18.84438
G1 X114.575 Y100.515 E18.87284
G1 X119.323 Y102.041 E19.12165
G1 X119.772 Y102.209 E19.14557
G1 X123.308 Y103.717 E19.33735
G1 X123.683 Y103.895 E19.35806
G1 X126.579 Y105.414 E19.52121
G1 X126.857 Y105.571 E19.53714
G1 X129.386 Y107.102 E19.68463
G1 X129.657 Y107.277 E19.70073
G1 X132.02 Y108.916 E19.8442
G1 X132.217 Y109.06 E19.85637
G1 X134.06 Y110.471 E19.97217
G1 X134.393 Y110.749 E19.99382
G1 X137.742 Y113.788 E20.21944
G1 X138.261 Y114.332 E20.25695
G1 X142.356 Y119.3 E20.57815
G1 X142.636 Y119.673 E20.60142
G1 X144.809 Y122.853 E20.79357
G1 X144.995 Y123.145 E20.81084
G1 X146.239 Y125.254 E20.933
G1 X146.381 Y125.511 E20.94765
G1 X147.783 Y128.227 E21.10014
G1 X147.946 Y128.574 E21.11927
G1 X149.246 Y131.625 E21.28472
G1 X149.347 Y131.879 E21.29836
G1 X149.871 Y133.314 E21.37458
G1 X149.959 Y133.58 E21.38856
G1 X151.081 Y137.255 E21.58026
G1 X151.191 Y137.678 E21.60206
G1 X151.998 Y141.426 E21.79334
G1 X152.053 Y141.721 E21.80831
G1 X152.342 Y143.576 E21.90197
G1 X152.385 Y143.934 E21.91996
G1 X152.724 Y147.911 E22.11909
G1 X152.741 Y148.215 E22.13428
G1 X152.792 Y150.132 E22.22996
G1 X152.789 Y150.497 E22.24817
G1 X152.619 Y154.386 E22.44237
G1 X152.596 Y154.695 E22.45783
G1 X152.365 Y156.926 E22.56973
G1 X152.329 Y157.202 E22.58362
G1 X151.89 Y159.978 E22.72384
G1 X151.805 Y160.403 E22.74546
G1 X150.8 Y164.505 E22.95616
G1 X150.725 Y164.777 E22.97024
G1 X150.176 Y166.587 E23.0646
G1 X150.101 Y166.815 E23.07658
G1 X148.89 Y170.233 E23.25749
G1 X148.638 Y170.825 E23.28959
G1 X146.896 Y174.302 E23.48361
G1 X146.723 Y174.62 E23.50167
G1 X144.466 Y178.437 E23.7229
G1 X144.272 Y178.74 E23.74085
G1 X142.703 Y181.018 E23.87885
G1 X142.474 Y181.326 E23.898
G1 X140.437 Y183.86 E24.0602
G1 X140.211 Y184.123 E24.0775
G1 X137.999 Y186.527 E24.24048
G1 X137.759 Y186.77 E24.25752
G1 X135.4 Y189.018 E24.4201
G1 X135.113 Y189.273 E24.43925
G1 X132.428 Y191.478 E24.61259
G1 X132.128 Y191.706 E24.63139
G1 X129.21 Y193.767 E24.80962
G1 X128.849 Y194.001 E24.83108
G1 X125.485 Y195.982 E25.02585
G1 X125.226 Y196.125 E25.04061
G1 X123.557 Y196.984 E25.13426
G1 X123.248 Y197.13 E25.15131
G1 X118.307 Y199.275 E25.42004
G1 X117.669 Y199.504 E25.45386
G1 X115.59 Y200.1 E25.56176
G1 X115.366 Y200.159 E25.57332
G1 X109.488 Y201.564 E25.87483
G1 X109.065 Y201.646 E25.89633
G1 X108.365 Y201.753 E25.93166
G1 X107.893 Y201.804 E25.95534
G1 X103.572 Y202.065 E26.17131
G1 X103.376 Y202.073 E26.1811
G1 X99.4 Y202.163 E26.37951
G1 X99 Y202.156 E26.39947
G1 X93.387 Y201.851 E26.67992
G1 X93.157 Y201.834 E26.69142
G1 X91.48 Y201.668 E26.7755
G1 X90.753 Y201.543 E26.8123
G1 X83.89 Y199.859 E27.16485
G1 X83.512 Y199.751 E27.18447
G1 X81.66 Y199.145 E27.28168
G1 X81.166 Y198.955 E27.30809
G1 X77.303 Y197.239 E27.51897
G1 X76.981 Y197.083 E27.53683
G1 X73.741 Y195.368 E27.71972
G1 X73.492 Y195.227 E27.73399
G1 X71.736 Y194.17 E27.83625
G1 X71.424 Y193.967 E27.85482
G1 X68.07 Y191.605 E28.05948
G1 X67.739 Y191.351 E28.0803
G1 X64.919 Y189.006 E28.26327
G1 X64.645 Y188.762 E28.28158
G1 X62.197 Y186.415 E28.45077
G1 X61.919 Y186.127 E28.47074
G1 X59.686 Y183.629 E28.6379
G1 X59.484 Y183.388 E28.65359
G1 X57.618 Y181.028 E28.80369
G1 X57.356 Y180.665 E28.82602
G1 X54.997 Y177.087 E29.03984
G1 X54.763 Y176.696 E29.06257
G1 X52.908 Y173.262 E29.25729
G1 X52.815 Y173.082 E29.2674
G1 X51.651 Y170.71 E29.39922
G1 X51.415 Y170.149 E29.42958
G1 X50.071 Y166.34 E29.6311
G1 X49.977 Y166.046 E29.6465
G1 X49.035 Y162.768 E29.81666
G1 X48.94 Y162.383 E29.83644
G1 X48.173 Y158.665 E30.02584
G1 X48.093 Y158.142 E30.05224
G1 X47.653 Y153.831 E30.26843
G1 X47.627 Y153.413 E30.28932
G1 X47.545 Y149.526 E30.48329
G1 X47.554 Y149.091 E30.505
G1 X47.802 Y145.128 E30.7031
G1 X47.827 Y144.853 E30.71687
G1 X47.988 Y143.466 E30.78654
G1 X48.031 Y143.169 E30.80151
G1 X48.556 Y140.171 E30.95336
G1 X48.613 Y139.891 E30.96761
G1 X49.147 Y137.594 E31.08527
G1 X49.246 Y137.227 E31.10423
G1 X50.457 Y133.332 E31.30773
G1 X50.536 Y133.098 E31.32005
G1 X51.261 Y131.105 E31.42585
G1 X51.403 Y130.755 E31.4447
G1 X52.312 Y128.728 E31.55553
G1 X52.414 Y128.515 E31.56731
G1 X53.632 Y126.099 E31.7023
G1 X53.784 Y125.819 E31.71819
G1 X55.616 Y122.68 E31.89952
G1 X55.806 Y122.379 E31.91728
G1 X57.27 Y120.224 E32.04725
G1 X57.474 Y119.943 E32.06458
G1 X59.008 Y117.981 E32.18883
G1 X59.125 Y117.837 E32.19808
G1 X62.099 Y114.301 E32.4286
G1 X62.533 Y113.845 E32.46
G1 X65.805 Y110.794 E32.6832
G1 X66.314 Y110.376 E32.71606
G1 X69.157 Y108.33 E32.89081
G1 X69.438 Y108.141 E32.90771
G0 F5400 X72.039 Y113.269
;TYPE:SUPPORT
G1 F1800 X73.76 Y112.122 E33.01089
G1 X73.888 Y111.747 E33.03066
G1 X74.252 Y111.747 E33.04882
G1 X76.066 Y110.506 E33.15847
G1 X76.24 Y110.226 E33.17492
G1 X76.743 Y110.226 E33.20001
G1 X77.512 Y109.768 E33.24467
G1 X78.996 Y109.006 E33.32789
G1 X79.166 Y108.704 E33.34518
G1 X79.687 Y108.704 E33.37118
G1 X80.159 Y108.451 E33.39789
G1 X82.483 Y107.435 E33.52443
G1 X82.719 Y107.181 E33.54173
G1 X83.193 Y107.181 E33.56538
G1 X85.609 Y106.3 E33.69368
G1 X87.084 Y105.869 E33.77034
G1 X87.396 Y105.657 E33.78916
G1 X87.858 Y105.657 E33.81221
G1 X88.366 Y105.505 E33.83867
G1 X91.201 Y104.86 E33.98372
G1 X94.219 Y104.378 E34.1362
G1 X96.453 Y104.378 E34.24765
G1 X96.767 Y104.131 E34.26758
G1 X97.267 Y104.131 E34.29253
G1 X100.161 Y104.039 E34.43698
G1 X103.063 Y104.13 E34.58183
G1 X103.541 Y104.13 E34.60568
G1 X103.855 Y104.377 E34.62561
G1 X106.082 Y104.377 E34.73672
G1 X109.021 Y104.846 E34.8852
G1 X111.963 Y105.509 E35.03566
G1 X112.457 Y105.656 E35.06137
G1 X112.929 Y105.656 E35.08492
G1 X113.24 Y105.857 E35.1034
G1 X114.689 Y106.288 E35.17882
G1 X117.136 Y107.18 E35.30876
G1 X117.64 Y107.18 E35.3339
G1 X117.884 Y107.444 E35.35184
G1 X120.161 Y108.443 E35.47589
G1 X120.664 Y108.703 E35.50414
G1 X121.182 Y108.703 E35.52998
G1 X121.349 Y108.996 E35.54681
G1 X122.846 Y109.774 E35.63098
G1 X122.846 Y109.775 E35.63103
G1 X123.6 Y110.225 E35.67483
G1 X124.035 Y110.225 E35.69654
G1 X124.163 Y110.566 E35.71471
G1 X125.359 Y111.258 E35.78364
G1 X126.072 Y111.746 E35.82675
G1 X126.52 Y111.746 E35.8491
G1 X126.648 Y112.113 E35.86849
G1 X128.351 Y113.268 E35.97115
G1 X128.638 Y113.268 E35.98547
G1 X128.28 Y114.299 E36.03992
G1 X128.632 Y114.792 E36.07014
G1 X130.616 Y114.792 E36.16912
G1 X130.225 Y115.816 E36.22381
G1 X130.571 Y116.317 E36.25419
G1 X132.372 Y116.317 E36.34404
G1 X131.984 Y117.338 E36.39853
G1 X132.33 Y117.84 E36.42895
G1 X134.158 Y117.84 E36.52015
G1 X134.295 Y118.033 E36.53195
G1 X136.492 Y120.631 E36.7017
G1 X136.709 Y120.847 E36.71698
G1 X137.559 Y121.982 E36.78772
G1 X137.879 Y122.333 E36.81142
G1 X138.537 Y123.183 E36.86505
G1 X139.785 Y125.041 E36.97671
G1 X140.061 Y125.4 E36.9993
G1 X140.78 Y126.642 E37.0709
G1 X140.953 Y126.895 E37.08619
G1 X141.673 Y128.126 E37.15734
G1 X142.357 Y129.489 E37.23342
G1 X142.613 Y129.947 E37.2596
G1 X143.04 Y130.796 E37.30701
G1 X143.797 Y132.565 E37.40301
G1 X143.946 Y132.849 E37.41901
G1 X144.519 Y134.39 E37.50103
G1 X144.94 Y135.578 E37.56391
G1 X145.064 Y135.884 E37.58039
G1 X145.966 Y138.971 E37.74084
G1 X146.587 Y141.734 E37.88212
G1 X147.038 Y144.555 E38.02465
G1 X147.315 Y147.461 E38.17029
G1 X147.406 Y150.366 E38.31529
G1 X147.323 Y153.152 E38.45435
G1 X146.998 Y156.416 E38.61799
G1 X146.564 Y159.139 E38.75556
G1 X145.372 Y163.959 E39.00327
G1 X145.338 Y164.082 E39.00964
G1 X143.772 Y168.534 E39.24509
G1 X143.047 Y169.983 E39.32593
G1 X142.841 Y170.34 E39.34649
G1 X141.759 Y172.503 E39.46715
G1 X141.107 Y173.62 E39.53168
G1 X140.942 Y173.862 E39.54629
G1 X140.252 Y175.038 E39.61431
G1 X138.603 Y177.505 E39.76236
G1 X138.01 Y178.283 E39.81116
G1 X137.77 Y178.551 E39.82911
G1 X136.766 Y179.857 E39.91129
G1 X134.914 Y181.991 E40.05226
G1 X134.091 Y182.819 E40.11051
G1 X133.795 Y183.073 E40.12997
G1 X132.52 Y184.374 E40.22085
G1 X132.196 Y184.624 E40.24126
G1 X130.624 Y186.027 E40.34638
G1 X128.451 Y187.735 E40.48428
G1 X125.904 Y189.496 E40.63876
G1 X123.396 Y190.99 E40.7844
G1 X120.882 Y192.295 E40.92572
G1 X116.496 Y194.221 E41.1647
G1 X114.207 Y194.891 E41.2837
G1 X113.837 Y194.739 E41.30365
G1 X111.789 Y195.344 E41.41019
G1 X108.567 Y196.076 E41.57503
G1 X108.242 Y196.317 E41.59522
G1 X107.616 Y196.417 E41.62685
G1 X107.254 Y196.298 E41.64586
G1 X103.066 Y196.698 E41.85575
G1 X100.15 Y196.791 E42.0013
G1 X97.22 Y196.698 E42.14755
G1 X93.083 Y196.304 E42.35488
G1 X92.715 Y196.421 E42.37415
G1 X92.071 Y196.314 E42.40672
G1 X91.754 Y196.08 E42.42638
G1 X88.459 Y195.332 E42.59495
G1 X86.485 Y194.741 E42.69775
G1 X86.126 Y194.895 E42.71724
G1 X83.764 Y194.199 E42.84009
G1 X79.339 Y192.244 E43.08144
G1 X76.938 Y190.996 E43.21644
G1 X76.938 Y190.995 E43.21649
G1 X74.337 Y189.441 E43.36765
G1 X71.917 Y187.772 E43.51431
G1 X69.6 Y185.941 E43.66165
G1 X68.065 Y184.568 E43.76439
G1 X67.806 Y184.373 E43.78057
G1 X66.639 Y183.183 E43.86372
G1 X66.297 Y182.886 E43.88632
G1 X65.461 Y182.035 E43.94584
G1 X63.541 Y179.844 E44.09118
G1 X62.554 Y178.556 E44.17213
G1 X62.3 Y178.27 E44.19122
G1 X61.723 Y177.52 E44.23843
G1 X59.933 Y174.847 E44.39892
G1 X58.637 Y172.626 E44.52721
G1 X58.587 Y172.529 E44.53266
G1 X57.495 Y170.371 E44.65332
G1 X57.299 Y170.02 E44.67338
G1 X57.298 Y170.02 E44.67343
G1 X56.638 Y168.715 E44.74639
G1 X56.478 Y168.286 E44.76923
G1 X56.479 Y168.286 E44.76928
G1 X55.141 Y164.508 E44.96924
G1 X54.26 Y161.46 E45.12753
G1 X53.972 Y160.066 E45.19854
