;woodified gcode, see graph at the end - jeremie.francois@gmail.com - generated on 20161004-0203
M230 S0
M104 S190
M230 S1
M116
;FLAVOR:RepRap
;TIME:1182
M190 S60.000000
M109 S205.000000
G21 ;metric values
G90 ;absolute positioning
M82 ;set extruder to absolute mode
M107 ;start with the fan off
G28 X0 Y0 ;move X/Y to min endstops
G28 Z0 ;move Z to min endstops
G1 Z15.0 F9000 ;move the platform down 15mm
G92 E0 ;zero the extruded length
G1 F200 E3 ;extrude 3mm of feed stock
G92 E0 ;zero the extruded length again
G1 F9000
;Put printing message on LCD screen
M117 Printing...
;Generated with Cura_SteamEngine 2.1.3
;LAYER_COUNT:119
;LAYER:0
M107
G1 F900.000000 E-6.50000
M104 S200
G0 F5400.00000 X123.287 Y114.385 Z0.300
;TYPE:SKIRT
G1 F900.000 E0.20788
G1 F1800.00000 X123.778 Y113.930 E0.24027
G1 X124.319 Y113.536 E0.27266
G1 X124.903 Y113.210 E0.30503
G1 X125.522 Y112.956 E0.33741
G1 X126.166 Y112.777 E0.36975
G1 X126.828 Y112.677 E0.40215
G1 X127.497 Y112.656 E0.43454
G1 X128.163 Y112.715 E0.46690
G1 X128.818 Y112.854 E0.49930
G1 X129.451 Y113.069 E0.53166
G1 X130.135 Y113.404 E0.56851
G1 X133.108 Y115.120 E0.73463
G1 X133.667 Y115.488 E0.76702
G1 X134.177 Y115.921 E0.79940
G1 X134.633 Y116.411 E0.83179
G1 X135.026 Y116.952 E0.86415
G1 X135.352 Y117.536 E0.89652
G1 X135.607 Y118.155 E0.92891
G1 X135.785 Y118.800 E0.96129
G1 X135.886 Y119.461 E0.99365
G1 X135.907 Y120.130 E1.02605
G1 X135.848 Y120.796 E1.05840
G1 X135.710 Y121.451 E1.09080
G1 X135.494 Y122.084 E1.12316
G1 X135.293 Y122.523 E1.14653
G1 X135.084 Y122.913 E1.16794
G1 X134.398 Y124.090 E1.23387
G1 X134.027 Y124.647 E1.26626
G1 X133.593 Y125.155 E1.29859
G1 X133.101 Y125.609 E1.33099
G1 X132.558 Y126.000 E1.36337
G1 X131.973 Y126.324 E1.39573
G1 X131.353 Y126.575 E1.42810
G1 X130.707 Y126.751 E1.46050
G1 X130.045 Y126.849 E1.49289
G1 X129.376 Y126.867 E1.52527
G1 X128.710 Y126.805 E1.55764
G1 X128.056 Y126.664 E1.59002
G1 X127.424 Y126.447 E1.62236
G1 X126.760 Y126.120 E1.65818
G1 X123.786 Y124.403 E1.82436
G1 X123.228 Y124.034 E1.85674
G1 X122.717 Y123.602 E1.88912
G1 X122.262 Y123.111 E1.92151
G1 X121.868 Y122.570 E1.95390
G1 X121.542 Y121.986 E1.98627
G1 X121.288 Y121.367 E2.01865
G1 X121.110 Y120.723 E2.05098
G1 X121.009 Y120.061 E2.08339
G1 X120.988 Y119.393 E2.11573
G1 X121.047 Y118.726 E2.14814
G1 X121.186 Y118.072 E2.18049
G1 X121.401 Y117.438 E2.21289
G1 X121.736 Y116.753 E2.24979
G1 X122.486 Y115.454 E2.32238
G1 X122.855 Y114.896 E2.35475
G1 X123.287 Y114.385 E2.38714
G0 F5400.00000 X123.609 Y114.628
G1 F1800.000 X124.086 Y114.194 E2.41834
G1 X124.614 Y113.824 E2.44955
G1 X125.183 Y113.521 E2.48074
G1 X125.785 Y113.291 E2.51193
G1 X126.411 Y113.137 E2.54313
G1 X127.051 Y113.062 E2.57431
G1 X127.696 Y113.066 E2.60553
G1 X128.335 Y113.151 E2.63672
G1 X128.959 Y113.314 E2.66793
G1 X129.558 Y113.553 E2.69914
G1 X129.935 Y113.750 E2.71973
G1 X132.908 Y115.466 E2.88585
G1 X133.446 Y115.823 E2.91709
G1 X133.935 Y116.243 E2.94829
G1 X134.368 Y116.720 E2.97946
G1 X134.739 Y117.247 E3.01065
G1 X135.042 Y117.816 E3.04185
G1 X135.272 Y118.418 E3.07304
G1 X135.426 Y119.045 E3.10428
G1 X135.501 Y119.685 E3.13546
G1 X135.497 Y120.329 E3.16663
G1 X135.412 Y120.969 E3.19787
G1 X135.249 Y121.592 E3.22904
G1 X134.937 Y122.341 E3.26830
G1 X134.739 Y122.711 E3.28861
G1 X134.053 Y123.888 E3.35454
G1 X133.694 Y124.424 E3.38576
G1 X133.272 Y124.912 E3.41698
G1 X132.793 Y125.343 E3.44816
G1 X132.264 Y125.712 E3.47938
G1 X131.694 Y126.012 E3.51055
G1 X131.091 Y126.240 E3.54175
G1 X130.464 Y126.391 E3.57296
G1 X129.823 Y126.463 E3.60417
G1 X129.179 Y126.456 E3.63534
G1 X128.540 Y126.369 E3.66655
G1 X127.917 Y126.204 E3.69774
G1 X127.319 Y125.962 E3.72896
G1 X126.960 Y125.773 E3.74859
G1 X123.986 Y124.056 E3.91478
G1 X123.449 Y123.700 E3.94595
G1 X122.960 Y123.280 E3.97715
G1 X122.526 Y122.803 E4.00836
G1 X122.156 Y122.275 E4.03956
G1 X121.853 Y121.706 E4.07076
G1 X121.623 Y121.104 E4.10194
G1 X121.469 Y120.478 E4.13314
G1 X121.394 Y119.838 E4.16432
G1 X121.398 Y119.193 E4.19554
G1 X121.483 Y118.554 E4.22673
G1 X121.646 Y117.930 E4.25795
G1 X121.885 Y117.331 E4.28916
G1 X122.083 Y116.953 E4.30981
G1 X122.833 Y115.654 E4.38239
G1 X123.189 Y115.117 E4.41357
G1 X123.609 Y114.628 E4.44477
G0 F5400.00000 X122.375 Y111.386
G1 F1800.000 X121.739 Y111.594 E4.47715
G1 X121.083 Y111.724 E4.50951
G1 X120.322 Y111.776 E4.54643
G1 X118.822 Y111.776 E4.61902
G1 X118.154 Y111.736 E4.65140
G1 X117.496 Y111.617 E4.68376
G1 X117.236 Y111.537 E4.69693
G1 X117.074 Y111.895 E4.71594
G1 X115.744 Y114.276 E4.84793
G1 X115.790 Y114.318 E4.85094
G1 X116.231 Y114.821 E4.88331
G1 X116.657 Y115.454 E4.92024
G1 X117.407 Y116.753 E4.99283
G1 X117.706 Y117.351 E5.02518
G1 X117.932 Y117.981 E5.05757
G1 X118.081 Y118.633 E5.08994
G1 X118.151 Y119.299 E5.12234
G1 X118.142 Y119.968 E5.15472
G1 X118.052 Y120.631 E5.18710
G1 X117.885 Y121.278 E5.21944
G1 X117.641 Y121.901 E5.25182
G1 X117.325 Y122.491 E5.28421
G1 X116.940 Y123.038 E5.31658
G1 X116.493 Y123.536 E5.34896
G1 X115.990 Y123.977 E5.38133
G1 X115.356 Y124.403 E5.41830
G1 X112.383 Y126.119 E5.58442
G1 X111.785 Y126.418 E5.61677
G1 X111.155 Y126.644 E5.64916
G1 X110.503 Y126.793 E5.68153
G1 X109.838 Y126.863 E5.71389
G1 X109.169 Y126.854 E5.74627
G1 X108.506 Y126.764 E5.77865
G1 X107.858 Y126.596 E5.81104
G1 X107.235 Y126.353 E5.84340
G1 X106.646 Y126.036 E5.87577
G1 X106.098 Y125.652 E5.90816
G1 X105.600 Y125.205 E5.94054
G1 X105.159 Y124.702 E5.97291
G1 X105.038 Y124.529 E5.98313
G1 X104.863 Y124.636 E5.99306
G1 X104.015 Y125.063 E6.03900
G1 X100.514 Y126.470 E6.22160
G1 X99.606 Y126.748 E6.26755
G1 X95.917 Y127.543 E6.45018
G1 X94.974 Y127.664 E6.49618
G1 X91.204 Y127.824 E6.67879
G1 X90.256 Y127.784 E6.72471
G1 X86.512 Y127.305 E6.90737
G1 X85.583 Y127.105 E6.95336
G1 X81.975 Y126.000 E7.13597
G1 X81.094 Y125.645 E7.18193
G1 X77.724 Y123.946 E7.36457
G1 X76.915 Y123.448 E7.41055
G1 X73.881 Y121.204 E7.59317
G1 X73.168 Y120.576 E7.63915
G1 X70.557 Y117.851 E7.82179
G1 X69.961 Y117.114 E7.86766
G1 X67.847 Y113.988 E8.05028
G1 X67.383 Y113.157 E8.09634
G1 X65.829 Y109.718 E8.27897
G1 X65.513 Y108.823 E8.32490
G1 X64.562 Y105.171 E8.50752
G1 X64.401 Y104.235 E8.55349
G1 X64.081 Y100.475 E8.73610
G1 X64.081 Y99.525 E8.78208
G1 X64.401 Y95.765 E8.96469
G1 X64.562 Y94.829 E9.01066
G1 X65.513 Y91.177 E9.19328
G1 X65.829 Y90.282 E9.23922
G1 X67.383 Y86.843 E9.42184
G1 X67.847 Y86.012 E9.46790
G1 X69.961 Y82.886 E9.65053
G1 X70.557 Y82.149 E9.69639
G1 X73.168 Y79.424 E9.87903
G1 X73.881 Y78.796 E9.92501
G1 X76.915 Y76.552 E10.10763
G1 X77.724 Y76.054 E10.15361
G1 X81.094 Y74.355 E10.33625
G1 X81.975 Y74.000 E10.38221
G1 X85.583 Y72.895 E10.56482
G1 X86.512 Y72.695 E10.61081
G1 X90.256 Y72.216 E10.79347
G1 X91.204 Y72.176 E10.83939
G1 X94.974 Y72.336 E11.02200
G1 X95.917 Y72.457 E11.06801
G1 X99.606 Y73.252 E11.25063
G1 X100.514 Y73.530 E11.29658
G1 X104.015 Y74.937 E11.47918
G1 X104.863 Y75.364 E11.52512
G1 X108.077 Y77.343 E11.70778
G1 X108.840 Y77.908 E11.75373
G1 X111.673 Y80.401 E11.93635
G1 X112.331 Y81.088 E11.98239
G1 X114.701 Y84.024 E12.16498
G1 X115.233 Y84.810 E12.21092
G1 X117.074 Y88.105 E12.39357
G1 X117.465 Y88.971 E12.43956
G1 X118.722 Y92.529 E12.62217
G1 X118.961 Y93.447 E12.66808
G1 X119.594 Y97.138 E12.84930
G1 X120.343 Y97.141 E12.88555
G1 X121.010 Y97.183 E12.91789
G1 X121.668 Y97.305 E12.95028
G1 X122.307 Y97.505 E12.98268
G1 X122.917 Y97.779 E13.01504
G1 X123.490 Y98.123 E13.04739
G1 X124.018 Y98.534 E13.07977
G1 X124.494 Y99.005 E13.11217
G1 X124.909 Y99.529 E13.14452
G1 X125.260 Y100.099 E13.17691
G1 X125.540 Y100.707 E13.20931
G1 X125.745 Y101.344 E13.24169
G1 X125.873 Y102.000 E13.27404
G1 X125.922 Y102.741 E13.30997
G1 X125.922 Y106.176 E13.47621
G1 X125.882 Y106.844 E13.50859
G1 X125.763 Y107.502 E13.54095
G1 X125.566 Y108.142 E13.57336
G1 X125.294 Y108.753 E13.60572
G1 X124.951 Y109.327 E13.63808
G1 X124.542 Y109.857 E13.67048
G1 X124.073 Y110.334 E13.70285
G1 X123.551 Y110.752 E13.73521
G1 X122.982 Y111.104 E13.76759
G1 X122.375 Y111.386 E13.79998
G0 F5400.00000 X122.008 Y111.095
G1 F1800.000 X121.387 Y111.266 E13.83115
G1 X120.749 Y111.358 E13.86235
G1 X120.322 Y111.376 E13.88303
G1 X118.822 Y111.376 E13.95562
G1 X118.179 Y111.336 E13.98680
G1 X117.545 Y111.217 E14.01802
G1 X117.019 Y111.048 E14.04475
G1 X116.724 Y111.700 E14.07938
G1 X115.242 Y114.352 E14.22640
G1 X115.683 Y114.787 E14.25638
G1 X116.082 Y115.293 E14.28757
G1 X116.310 Y115.654 E14.30823
G1 X117.060 Y116.953 E14.38082
G1 X117.347 Y117.530 E14.41200
G1 X117.561 Y118.138 E14.44320
G1 X117.697 Y118.768 E14.47439
G1 X117.755 Y119.411 E14.50563
G1 X117.733 Y120.055 E14.53681
G1 X117.631 Y120.691 E14.56798
G1 X117.451 Y121.311 E14.59923
G1 X117.196 Y121.903 E14.63042
G1 X116.870 Y122.459 E14.66161
G1 X116.477 Y122.970 E14.69281
G1 X116.024 Y123.429 E14.72402
G1 X115.518 Y123.828 E14.75520
G1 X115.156 Y124.057 E14.77593
G1 X112.183 Y125.773 E14.94205
G1 X111.606 Y126.060 E14.97324
G1 X110.998 Y126.273 E15.00441
G1 X110.368 Y126.410 E15.03561
G1 X109.726 Y126.467 E15.06681
G1 X109.081 Y126.445 E15.09804
G1 X108.445 Y126.343 E15.12921
G1 X107.826 Y126.163 E15.16041
G1 X107.234 Y125.908 E15.19160
G1 X106.678 Y125.581 E15.22281
G1 X106.167 Y125.188 E15.25401
G1 X105.708 Y124.735 E15.28522
G1 X105.189 Y124.049 E15.32685
G1 X105.152 Y123.988 E15.33030
G1 X104.653 Y124.295 E15.35865
G1 X103.866 Y124.692 E15.40131
G1 X100.365 Y126.099 E15.58391
G1 X99.521 Y126.357 E15.62662
G1 X95.832 Y127.152 E15.80924
G1 X94.957 Y127.264 E15.85193
G1 X91.187 Y127.424 E16.03454
G1 X90.307 Y127.387 E16.07716
G1 X86.563 Y126.908 E16.25982
G1 X85.700 Y126.722 E16.30254
G1 X82.092 Y125.617 E16.48515
G1 X81.274 Y125.288 E16.52782
G1 X77.904 Y123.589 E16.71046
G1 X77.153 Y123.127 E16.75313
G1 X74.119 Y120.883 E16.93575
G1 X73.456 Y120.300 E16.97848
G1 X70.845 Y117.575 E17.16111
G1 X70.293 Y116.890 E17.20369
G1 X68.179 Y113.764 E17.38631
G1 X67.747 Y112.992 E17.42912
G1 X66.193 Y109.553 E17.61175
G1 X65.900 Y108.722 E17.65439
G1 X64.949 Y105.070 E17.83702
G1 X64.800 Y104.201 E17.87969
G1 X64.480 Y100.441 E18.06230
G1 X64.480 Y99.559 E18.10499
G1 X64.800 Y95.799 E18.28760
G1 X64.949 Y94.930 E18.33027
G1 X65.900 Y91.278 E18.51290
G1 X66.193 Y90.447 E18.55554
G1 X67.747 Y87.008 E18.73817
G1 X68.179 Y86.236 E18.78098
G1 X70.293 Y83.110 E18.96360
G1 X70.845 Y82.425 E19.00617
G1 X73.456 Y79.700 E19.18881
G1 X74.119 Y79.117 E19.23154
G1 X77.153 Y76.873 E19.41416
G1 X77.904 Y76.411 E19.45683
G1 X81.274 Y74.712 E19.63947
G1 X82.092 Y74.383 E19.68214
G1 X85.700 Y73.278 E19.86474
G1 X86.563 Y73.092 E19.90747
G1 X90.307 Y72.613 E20.09013
G1 X91.187 Y72.576 E20.13275
G1 X94.957 Y72.736 E20.31536
G1 X95.832 Y72.848 E20.35805
G1 X99.521 Y73.643 E20.54067
G1 X100.365 Y73.901 E20.58338
G1 X103.866 Y75.308 E20.76598
G1 X104.653 Y75.705 E20.80864
G1 X107.867 Y77.684 E20.99129
G1 X108.576 Y78.208 E21.03396
G1 X111.409 Y80.701 E21.21658
G1 X112.020 Y81.339 E21.25933
G1 X114.390 Y84.275 E21.44193
G1 X114.883 Y85.005 E21.48456
G1 X116.724 Y88.300 E21.66722
G1 X117.088 Y89.104 E21.70993
G1 X118.345 Y92.662 E21.89254
G1 X118.567 Y93.515 E21.93519
G1 X119.205 Y97.235 E22.11785
G1 X119.231 Y97.537 E22.13251
G1 X120.341 Y97.541 E22.18623
G1 X120.984 Y97.583 E22.21742
G1 X121.617 Y97.705 E22.24861
G1 X122.231 Y97.904 E22.27985
G1 X122.815 Y98.177 E22.31104
G1 X123.360 Y98.521 E22.34223
G1 X123.859 Y98.929 E22.37343
G1 X124.303 Y99.396 E22.40461
G1 X124.687 Y99.914 E22.43581
G1 X125.003 Y100.476 E22.46702
G1 X125.247 Y101.073 E22.49823
G1 X125.416 Y101.695 E22.52942
G1 X125.506 Y102.333 E22.56060
G1 X125.522 Y102.741 E22.58036
G1 X125.522 Y106.176 E22.74659
G1 X125.482 Y106.819 E22.77777
G1 X125.363 Y107.453 E22.80899
G1 X125.166 Y108.067 E22.84019
G1 X124.895 Y108.652 E22.87139
G1 X124.553 Y109.199 E22.90261
G1 X124.147 Y109.699 E22.93378
G1 X123.682 Y110.145 E22.96496
G1 X123.165 Y110.530 E22.99616
G1 X122.604 Y110.849 E23.02739
G1 X122.008 Y111.095 E23.05859
G1 F900.00000 E16.55859
G0 F5400.00000 X114.120 Y108.308
G0 X112.102 Y107.597
G0 X112.065 Y107.584
G0 X111.545 Y108.876
G0 X111.636 Y108.917
;TYPE:WALL-INNER
G1 F900.000 E23.26646
G1 F1800.00000 X109.844 Y112.123 E23.44421
G1 X107.536 Y114.981 E23.62198
G1 X104.785 Y117.403 E23.79936
G1 X101.657 Y119.328 E23.97710
G1 X98.250 Y120.698 E24.15481
G1 X94.656 Y121.472 E24.33272
G1 X90.990 Y121.627 E24.51029
G1 X87.356 Y121.163 E24.68758
G1 X83.840 Y120.087 E24.86552
G1 X80.559 Y118.432 E25.04336
G1 X77.606 Y116.249 E25.22107
G1 X75.070 Y113.601 E25.39851
G1 X73.012 Y110.558 E25.57628
G1 X71.500 Y107.211 E25.75402
G1 X70.574 Y103.658 E25.93170
G1 X70.262 Y100.000 E26.10937
G1 X70.574 Y96.342 E26.28704
G1 X71.500 Y92.789 E26.46472
G1 X73.012 Y89.442 E26.64245
G1 X75.070 Y86.399 E26.82023
G1 X77.606 Y83.751 E26.99767
G1 X80.559 Y81.568 E27.17538
G1 X83.840 Y79.913 E27.35322
G1 X87.356 Y78.837 E27.53116
G1 X90.990 Y78.373 E27.70845
G1 X94.656 Y78.528 E27.88602
G1 X98.250 Y79.302 E28.06393
G1 X101.657 Y80.672 E28.24164
G1 X104.785 Y82.597 E28.41938
G1 X107.536 Y85.019 E28.59676
G1 X109.844 Y87.877 E28.77453
G1 X111.636 Y91.083 E28.95227
G1 X112.859 Y94.547 E29.13005
G1 X113.480 Y98.167 E29.30779
G1 X113.480 Y101.833 E29.48520
G1 X112.859 Y105.453 E29.66295
G1 X111.636 Y108.917 E29.84072
G0 F5400.00000 X112.002 Y109.081
;TYPE:WALL-OUTER
G1 F1800.000 X110.177 Y112.347 E30.02178
G1 X107.826 Y115.259 E30.20289
G1 X105.022 Y117.727 E30.38367
G1 X101.840 Y119.686 E30.56450
G1 X98.366 Y121.082 E30.74568
G1 X94.710 Y121.870 E30.92667
G1 X90.972 Y122.028 E31.10773
G1 X87.267 Y121.554 E31.28849
G1 X83.692 Y120.460 E31.46941
G1 X80.350 Y118.774 E31.65056
G1 X77.340 Y116.549 E31.83170
G1 X74.759 Y113.855 E32.01225
G1 X72.659 Y110.750 E32.19365
G1 X71.123 Y107.349 E32.37424
G1 X70.178 Y103.723 E32.55558
G1 X69.861 Y100.000 E32.73640
G1 X70.178 Y96.277 E32.91722
G1 X71.123 Y92.651 E33.09856
G1 X72.659 Y89.250 E33.27915
G1 X74.759 Y86.145 E33.46055
G1 X77.340 Y83.451 E33.64110
G1 X80.350 Y81.226 E33.82224
G1 X83.692 Y79.540 E34.00339
G1 X87.267 Y78.446 E34.18432
G1 X90.972 Y77.972 E34.36507
G1 X94.710 Y78.130 E34.54613
G1 X98.366 Y78.918 E34.72712
G1 X101.840 Y80.314 E34.90831
G1 X105.022 Y82.273 E35.08914
G1 X107.826 Y84.741 E35.26991
G1 X110.177 Y87.653 E35.45102
G1 X112.002 Y90.919 E35.63208
G1 X113.248 Y94.448 E35.81319
G1 X113.880 Y98.131 E35.99403
G1 X113.880 Y101.869 E36.17493
G1 X113.248 Y105.552 E36.35576
G1 X112.002 Y109.081 E36.53688
G0 F5400.00000 X111.539 Y108.710
;TYPE:SKIN
G1 F1800.000 X83.229 Y80.400 E38.47438
G0 X83.159 Y80.330
G0 F5400.000 X83.605 Y80.211
G1 F1800.000 X111.686 Y108.292 E40.39621
G0 X111.756 Y108.362
G0 F5400.000 X111.834 Y107.874
G1 F1800.000 X83.993 Y80.033 E42.30161
G0 X83.923 Y79.963
G0 F5400.000 X84.426 Y79.900
G1 F1800.000 X111.981 Y107.456 E44.18747
G0 X112.051 Y107.526
G0 F5400.000 X112.129 Y107.038
G1 F1800.000 X84.859 Y79.768 E46.05380
G0 X84.789 Y79.698
G0 F5400.000 X85.292 Y79.635
G1 F1800.000 X112.277 Y106.620 E47.90062
G0 X112.347 Y106.690
G0 F5400.000 X112.424 Y106.201
G1 F1800.000 X85.726 Y79.503 E49.72779
G0 X85.656 Y79.433
G0 F5400.000 X86.159 Y79.371
G1 F1800.000 X112.572 Y105.783 E51.53543
G0 X112.642 Y105.853
G0 F5400.000 X112.712 Y105.358
G1 F1800.000 X86.592 Y79.238 E53.32305
G0 X86.522 Y79.168
G0 F5400.000 X87.025 Y79.106
G1 F1800.000 X112.795 Y104.875 E55.08668
G0 X112.865 Y104.945
G0 F5400.000 X112.878 Y104.393
G1 F1800.000 X87.469 Y78.983 E56.82568
G0 X87.399 Y78.913
G0 F5400.000 X87.971 Y78.920
G1 F1800.000 X112.961 Y103.910 E58.53596
G0 X113.031 Y103.980
G0 F5400.000 X113.043 Y103.427
G1 F1800.000 X88.472 Y78.855 E60.21760
G0 X88.402 Y78.785
G0 F5400.000 X88.974 Y78.792
G1 F1800.000 X113.127 Y102.944 E61.87057
G0 X113.197 Y103.014
G0 F5400.000 X113.209 Y102.461
G1 F1800.000 X89.475 Y78.727 E63.49490
G0 X89.405 Y78.657
G0 F5400.000 X89.977 Y78.664
G1 F1800.000 X113.292 Y101.978 E65.09051
G0 X113.362 Y102.048
G0 F5400.000 X113.319 Y101.440
G1 F1800.000 X90.479 Y78.599 E66.65369
G0 X90.409 Y78.529
G0 F5400.000 X90.981 Y78.536
G1 F1800.000 X113.319 Y100.874 E68.18247
G0 X113.389 Y100.944
