;woodified gcode, see graph at the end - jeremie.francois@gmail.com - generated on 20161004-0058
M230 S0
M104 S190
M230 S1
M116
;FLAVOR:RepRap
;TIME:746
M190 S60.000000
M109 S205.000000
G21 ;metric values
G90 ;absolute positioning
M82 ;set extruder to absolute mode
M107 ;start with the fan off
G28 X0 Y0 ;move X/Y to min endstops
G28 Z0 ;move Z to min endstops
G1 Z15.0 F9000 ;move the platform down 15mm
G92 E0 ;zero the extruded length
G1 F200 E3 ;extrude 3mm of feed stock
G92 E0 ;zero the extruded length again
G1 F9000
;Put printing message on LCD screen
M117 Printing...
;Generated with Cura_SteamEngine 2.1.3
;LAYER_COUNT:80
;LAYER:0
M107
G1 F900.000000 E-6.50000
M104 S200
G0 F5400.00000 X85.856 Y85.661 Z0.300
;TYPE:SKIRT
G1 F900.000 E0.20788
G1 F1800.00000 X86.384 Y85.212 E0.24142
G1 X86.959 Y84.827 E0.27491
G1 X87.576 Y84.512 E0.30843
G1 X88.224 Y84.269 E0.34192
G1 X88.897 Y84.102 E0.37548
G1 X89.583 Y84.014 E0.40895
G1 X90.000 Y84.000 E0.42914
G1 X110.000 Y84.000 E1.39701
G1 X110.691 Y84.040 E1.43051
G1 X111.374 Y84.159 E1.46406
G1 X112.037 Y84.357 E1.49754
G1 X112.674 Y84.629 E1.53106
G1 X113.275 Y84.973 E1.56457
G1 X113.833 Y85.384 E1.59811
G1 X114.339 Y85.856 E1.63160
G1 X114.788 Y86.384 E1.66514
G1 X115.173 Y86.959 E1.69863
G1 X115.488 Y87.576 E1.73215
G1 X115.731 Y88.224 E1.76564
G1 X115.898 Y88.897 E1.79920
G1 X115.986 Y89.583 E1.83267
G1 X116.000 Y90.000 E1.85286
G1 X116.000 Y110.000 E2.82073
G1 X115.960 Y110.691 E2.85423
G1 X115.841 Y111.374 E2.88778
G1 X115.643 Y112.037 E2.92126
G1 X115.371 Y112.674 E2.95478
G1 X115.027 Y113.275 E2.98829
G1 X114.616 Y113.833 E3.02183
G1 X114.144 Y114.339 E3.05532
G1 X113.616 Y114.788 E3.08886
G1 X113.041 Y115.173 E3.12235
G1 X112.424 Y115.488 E3.15587
G1 X111.776 Y115.731 E3.18936
G1 X111.103 Y115.898 E3.22292
G1 X110.417 Y115.986 E3.25639
G1 X110.000 Y116.000 E3.27658
G1 X90.000 Y116.000 E4.24445
G1 X89.309 Y115.960 E4.27795
G1 X88.626 Y115.841 E4.31150
G1 X87.963 Y115.643 E4.34498
G1 X87.326 Y115.371 E4.37850
G1 X86.725 Y115.027 E4.41201
G1 X86.167 Y114.616 E4.44555
G1 X85.661 Y114.144 E4.47904
G1 X85.212 Y113.616 E4.51258
G1 X84.827 Y113.041 E4.54607
G1 X84.512 Y112.424 E4.57959
G1 X84.269 Y111.776 E4.61309
G1 X84.102 Y111.103 E4.64664
G1 X84.014 Y110.417 E4.68011
G1 X84.000 Y110.000 E4.70030
G1 X84.000 Y90.000 E5.66817
G1 X84.040 Y89.309 E5.70167
G1 X84.159 Y88.626 E5.73522
G1 X84.357 Y87.963 E5.76870
G1 X84.629 Y87.326 E5.80222
G1 X84.973 Y86.725 E5.83574
G1 X85.384 Y86.167 E5.86927
G1 X85.856 Y85.661 E5.90276
G0 F5400.00000 X86.249 Y85.842
G1 F1800.000 X86.771 Y85.424 E5.93512
G1 X87.340 Y85.072 E5.96750
G1 X87.947 Y84.790 E5.99989
G1 X88.583 Y84.582 E6.03227
G1 X89.239 Y84.452 E6.06464
G1 X90.000 Y84.400 E6.10155
G1 X110.000 Y84.400 E7.06942
G1 X110.668 Y84.440 E7.10181
G1 X111.326 Y84.559 E7.13417
G1 X111.966 Y84.756 E7.16657
G1 X112.577 Y85.028 E7.19894
G1 X113.151 Y85.371 E7.23130
G1 X113.681 Y85.780 E7.26369
G1 X114.158 Y86.249 E7.29607
G1 X114.576 Y86.771 E7.32843
G1 X114.928 Y87.340 E7.36081
G1 X115.210 Y87.947 E7.39320
G1 X115.418 Y88.583 E7.42558
G1 X115.548 Y89.239 E7.45794
G1 X115.600 Y90.000 E7.49486
G1 X115.600 Y110.000 E8.46273
G1 X115.560 Y110.668 E8.49511
G1 X115.441 Y111.326 E8.52747
G1 X115.244 Y111.966 E8.55988
G1 X114.972 Y112.577 E8.59224
G1 X114.629 Y113.151 E8.62460
G1 X114.220 Y113.681 E8.65700
G1 X113.751 Y114.158 E8.68937
G1 X113.229 Y114.576 E8.72174
G1 X112.660 Y114.928 E8.75412
G1 X112.053 Y115.210 E8.78651
G1 X111.417 Y115.418 E8.81889
G1 X110.761 Y115.548 E8.85125
G1 X110.000 Y115.600 E8.88817
G1 X90.000 Y115.600 E9.85603
G1 X89.332 Y115.560 E9.88842
G1 X88.674 Y115.441 E9.92078
G1 X88.034 Y115.244 E9.95319
G1 X87.423 Y114.972 E9.98555
G1 X86.849 Y114.629 E10.01791
G1 X86.319 Y114.220 E10.05031
G1 X85.842 Y113.751 E10.08268
G1 X85.424 Y113.229 E10.11504
G1 X85.072 Y112.660 E10.14742
G1 X84.790 Y112.053 E10.17981
G1 X84.582 Y111.417 E10.21219
G1 X84.452 Y110.761 E10.24456
G1 X84.400 Y110.000 E10.28147
G1 X84.400 Y90.000 E11.24934
G1 X84.440 Y89.332 E11.28173
G1 X84.559 Y88.674 E11.31409
G1 X84.756 Y88.034 E11.34649
G1 X85.028 Y87.423 E11.37886
G1 X85.371 Y86.849 E11.41122
G1 X85.780 Y86.319 E11.44361
G1 X86.249 Y85.842 E11.47599
G0 F5400.00000 X86.640 Y86.031
G1 F1800.000 X87.157 Y85.646 E11.50718
G1 X87.718 Y85.327 E11.53841
G1 X88.314 Y85.081 E11.56962
G1 X88.935 Y84.910 E11.60079
G1 X89.573 Y84.818 E11.63198
G1 X90.000 Y84.800 E11.65266
G1 X110.000 Y84.800 E12.62053
G1 X110.643 Y84.840 E12.65171
G1 X111.277 Y84.959 E12.68293
G1 X111.891 Y85.156 E12.71413
G1 X112.476 Y85.427 E12.74533
G1 X113.023 Y85.769 E12.77655
G1 X113.523 Y86.175 E12.80772
G1 X113.969 Y86.640 E12.83890
G1 X114.354 Y87.157 E12.87010
G1 X114.673 Y87.718 E12.90133
G1 X114.919 Y88.314 E12.93253
G1 X115.090 Y88.935 E12.96370
G1 X115.182 Y89.573 E12.99490
G1 X115.200 Y90.000 E13.01558
G1 X115.200 Y110.000 E13.98345
G1 X115.160 Y110.643 E14.01463
G1 X115.041 Y111.277 E14.04584
G1 X114.844 Y111.891 E14.07705
G1 X114.573 Y112.476 E14.10825
G1 X114.231 Y113.023 E14.13947
G1 X113.825 Y113.523 E14.17064
G1 X113.360 Y113.969 E14.20182
G1 X112.843 Y114.354 E14.23301
G1 X112.282 Y114.673 E14.26424
G1 X111.686 Y114.919 E14.29545
G1 X111.065 Y115.090 E14.32662
G1 X110.427 Y115.182 E14.35781
G1 X110.000 Y115.200 E14.37849
G1 X90.000 Y115.200 E15.34636
G1 X89.357 Y115.160 E15.37754
G1 X88.723 Y115.041 E15.40876
G1 X88.109 Y114.844 E15.43996
G1 X87.524 Y114.573 E15.47116
G1 X86.977 Y114.231 E15.50238
G1 X86.477 Y113.825 E15.53355
G1 X86.031 Y113.360 E15.56473
G1 X85.646 Y112.843 E15.59593
G1 X85.327 Y112.282 E15.62716
G1 X85.081 Y111.686 E15.65836
G1 X84.910 Y111.065 E15.68953
G1 X84.818 Y110.427 E15.72073
G1 X84.800 Y110.000 E15.74141
G1 X84.800 Y90.000 E16.70928
G1 X84.840 Y89.357 E16.74046
G1 X84.959 Y88.723 E16.77167
G1 X85.156 Y88.109 E16.80288
G1 X85.427 Y87.524 E16.83408
G1 X85.769 Y86.977 E16.86530
G1 X86.175 Y86.477 E16.89647
G1 X86.640 Y86.031 E16.92765
G1 F900.00000 E10.42765
G0 F5400.00000 X88.752 Y88.469
G0 X90.600 Y90.600
G0 X90.628 Y90.628
G0 X90.670 Y90.670
G0 X90.600 Y90.600
;TYPE:WALL-INNER
G1 F900.000 E17.13553
G1 F1800.00000 X109.400 Y90.600 E18.04532
G1 X109.400 Y109.400 E18.95512
G1 X90.600 Y109.400 E19.86492
G1 X90.600 Y90.600 E20.77472
G0 F5400.00000 X90.200 Y90.200
;TYPE:WALL-OUTER
G1 F1800.000 X109.800 Y90.200 E21.72323
G1 X109.800 Y109.800 E22.67174
G1 X90.200 Y109.800 E23.62025
G1 X90.200 Y90.200 E24.56877
G0 F5400.00000 X90.759 Y90.759
;TYPE:SKIN
G1 F1800.000 X109.239 Y109.239 E25.83351
G0 X109.309 Y109.309
G0 F5400.000 X108.673 Y109.239
G1 F1800.000 X90.759 Y91.325 E27.05953
G0 X90.689 Y91.255
G0 F5400.000 X90.759 Y91.891
G1 F1800.000 X108.108 Y109.239 E28.24684
G0 X108.178 Y109.309
G0 F5400.000 X107.542 Y109.239
G1 F1800.000 X90.759 Y92.457 E29.39541
G0 X90.689 Y92.387
G0 F5400.000 X90.759 Y93.022
G1 F1800.000 X106.976 Y109.239 E30.50528
G0 X107.046 Y109.309
G0 F5400.000 X106.411 Y109.239
G1 F1800.000 X90.759 Y93.588 E31.57645
G0 X90.689 Y93.518
G0 F5400.000 X90.759 Y94.154
G1 F1800.000 X105.845 Y109.239 E32.60888
G0 X105.915 Y109.309
G0 F5400.000 X105.279 Y109.239
G1 F1800.000 X90.759 Y94.719 E33.60261
G0 X90.689 Y94.649
G0 F5400.000 X90.759 Y95.285
G1 F1800.000 X104.714 Y109.239 E34.55764
G0 X104.784 Y109.309
G0 F5400.000 X104.148 Y109.239
G1 F1800.000 X90.759 Y95.851 E35.47393
G0 X90.689 Y95.781
G0 F5400.000 X90.759 Y96.416
G1 F1800.000 X103.582 Y109.239 E36.35152
G0 X103.652 Y109.309
G0 F5400.000 X103.016 Y109.239
G1 F1800.000 X90.759 Y96.982 E37.19038
G0 X90.689 Y96.912
G0 F5400.000 X90.759 Y97.548
G1 F1800.000 X102.451 Y109.239 E37.99053
G0 X102.521 Y109.309
G0 F5400.000 X101.885 Y109.239
G1 F1800.000 X90.759 Y98.113 E38.75198
G0 X90.689 Y98.043
G0 F5400.000 X90.759 Y98.679
G1 F1800.000 X101.319 Y109.239 E39.47469
G0 X101.389 Y109.309
G0 F5400.000 X100.754 Y109.239
G1 F1800.000 X90.759 Y99.245 E40.15870
G0 X90.689 Y99.175
G0 F5400.000 X90.759 Y99.810
G1 F1800.000 X100.188 Y109.239 E40.80401
G0 X100.258 Y109.309
G0 F5400.000 X99.622 Y109.239
G1 F1800.000 X90.759 Y100.376 E41.41058
G0 X90.689 Y100.306
G0 F5400.000 X90.759 Y100.942
G1 F1800.000 X99.057 Y109.239 E41.97845
G0 X99.127 Y109.309
G0 F5400.000 X98.491 Y109.239
G1 F1800.000 X90.759 Y101.508 E42.50759
G0 X90.689 Y101.438
G0 F5400.000 X90.759 Y102.073
G1 F1800.000 X97.925 Y109.239 E42.99802
G0 X97.995 Y109.309
G0 F5400.000 X97.360 Y109.239
G1 F1800.000 X90.759 Y102.639 E43.44975
G0 X90.689 Y102.569
G0 F5400.000 X90.759 Y103.205
G1 F1800.000 X96.794 Y109.239 E43.86274
G0 X96.864 Y109.309
G0 F5400.000 X96.228 Y109.239
G1 F1800.000 X90.759 Y103.770 E44.23703
G0 X90.689 Y103.700
G0 F5400.000 X90.759 Y104.336
G1 F1800.000 X95.663 Y109.239 E44.57262
G0 X95.733 Y109.309
G0 F5400.000 X95.097 Y109.239
G1 F1800.000 X90.759 Y104.902 E44.86948
G0 X90.689 Y104.832
G0 F5400.000 X90.759 Y105.467
G1 F1800.000 X94.531 Y109.239 E45.12763
G0 X94.601 Y109.309
G0 F5400.000 X93.966 Y109.239
G1 F1800.000 X90.759 Y106.033 E45.34708
G0 X90.689 Y105.963
G0 F5400.000 X90.759 Y106.599
G1 F1800.000 X93.400 Y109.239 E45.52779
G0 X93.470 Y109.309
G0 F5400.000 X92.834 Y109.239
G1 F1800.000 X90.759 Y107.164 E45.66980
G0 X90.689 Y107.094
G0 F5400.000 X90.759 Y107.730
G1 F1800.000 X92.268 Y109.239 E45.77307
G0 X92.338 Y109.309
G0 F5400.000 X91.703 Y109.239
G1 F1800.000 X90.759 Y108.296 E45.83764
G0 X90.689 Y108.226
G0 F5400.000 X90.759 Y108.861
G1 F1800.000 X91.137 Y109.239 E45.86351
G0 F5400.00000 X109.239 Y108.673
G1 F1800.000 X91.325 Y90.759 E47.08953
G0 X91.255 Y90.689
G0 F5400.000 X91.891 Y90.759
G1 F1800.000 X109.239 Y108.108 E48.27684
G0 X109.309 Y108.178
G0 F5400.000 X109.239 Y107.542
G1 F1800.000 X92.457 Y90.759 E49.42541
G0 X92.387 Y90.689
G0 F5400.000 X93.022 Y90.759
G1 F1800.000 X109.239 Y106.976 E50.53528
G0 X109.309 Y107.046
G0 F5400.000 X109.239 Y106.411
G1 F1800.000 X93.588 Y90.759 E51.60645
G0 X93.518 Y90.689
G0 F5400.000 X94.154 Y90.759
G1 F1800.000 X109.239 Y105.845 E52.63888
G0 X109.309 Y105.915
G0 F5400.000 X109.239 Y105.279
G1 F1800.000 X94.719 Y90.759 E53.63261
G0 X94.649 Y90.689
G0 F5400.000 X95.285 Y90.759
G1 F1800.000 X109.239 Y104.714 E54.58764
G0 X109.309 Y104.784
G0 F5400.000 X109.239 Y104.148
G1 F1800.000 X95.851 Y90.759 E55.50393
G0 X95.781 Y90.689
G0 F5400.000 X96.416 Y90.759
G1 F1800.000 X109.239 Y103.582 E56.38152
G0 X109.309 Y103.652
G0 F5400.000 X109.239 Y103.016
G1 F1800.000 X96.982 Y90.759 E57.22038
G0 X96.912 Y90.689
G0 F5400.000 X97.548 Y90.759
G1 F1800.000 X109.239 Y102.451 E58.02053
G0 X109.309 Y102.521
G0 F5400.000 X109.239 Y101.885
G1 F1800.000 X98.113 Y90.759 E58.78198
G0 X98.043 Y90.689
G0 F5400.000 X98.679 Y90.759
G1 F1800.000 X109.239 Y101.319 E59.50469
G0 X109.309 Y101.389
G0 F5400.000 X109.239 Y100.754
G1 F1800.000 X99.245 Y90.759 E60.18870
G0 X99.175 Y90.689
G0 F5400.000 X99.810 Y90.759
G1 F1800.000 X109.239 Y100.188 E60.83401
G0 X109.309 Y100.258
G0 F5400.000 X109.239 Y99.622
G1 F1800.000 X100.376 Y90.759 E61.44058
G0 X100.306 Y90.689
G0 F5400.000 X100.942 Y90.759
G1 F1800.000 X109.239 Y99.057 E62.00845
G0 X109.309 Y99.127
G0 F5400.000 X109.239 Y98.491
G1 F1800.000 X101.508 Y90.759 E62.53759
G0 X101.438 Y90.689
G0 F5400.000 X102.073 Y90.759
G1 F1800.000 X109.239 Y97.925 E63.02802
G0 X109.309 Y97.995
G0 F5400.000 X109.239 Y97.360
G1 F1800.000 X102.639 Y90.759 E63.47975
G0 X102.569 Y90.689
G0 F5400.000 X103.205 Y90.759
G1 F1800.000 X109.239 Y96.794 E63.89274
G0 X109.309 Y96.864
G0 F5400.000 X109.239 Y96.228
G1 F1800.000 X103.770 Y90.759 E64.26703
G0 X103.700 Y90.689
G0 F5400.000 X104.336 Y90.759
G1 F1800.000 X109.239 Y95.663 E64.60262
G0 X109.309 Y95.733
G0 F5400.000 X109.239 Y95.097
G1 F1800.000 X104.902 Y90.759 E64.89948
G0 X104.832 Y90.689
G0 F5400.000 X105.467 Y90.759
G1 F1800.000 X109.239 Y94.531 E65.15763
G0 X109.309 Y94.601
G0 F5400.000 X109.239 Y93.966
G1 F1800.000 X106.033 Y90.759 E65.37708
G0 X105.963 Y90.689
G0 F5400.000 X106.599 Y90.759
G1 F1800.000 X109.239 Y93.400 E65.55779
G0 X109.309 Y93.470
G0 F5400.000 X109.239 Y92.834
G1 F1800.000 X107.164 Y90.759 E65.69980
G0 X107.094 Y90.689
G0 F5400.000 X107.730 Y90.759
G1 F1800.000 X109.239 Y92.268 E65.80307
G0 X109.309 Y92.338
G0 F5400.000 X109.239 Y91.703
G1 F1800.000 X108.296 Y90.759 E65.86764
G0 X108.226 Y90.689
G0 F5400.000 X108.861 Y90.759
G1 F1800.000 X109.239 Y91.137 E65.89351
G0 F5400.00000 X109.000 Y91.137
;LAYER:1
M106 S255.000
M104 S209
G0 X109.400 Y90.600 Z0.550
;TYPE:WALL-INNER
G1 F1800.000 X109.400 Y109.400 E66.65168
G1 X90.600 Y109.400 E67.40984
G1 X90.600 Y90.600 E68.16801
G1 X109.400 Y90.600 E68.92617
G0 F5400.00000 X109.800 Y90.200
;TYPE:WALL-OUTER
G1 F1650.000 X109.800 Y109.800 E69.71660
G1 X90.200 Y109.800 E70.50703
G1 X90.200 Y90.200 E71.29745
G1 X109.800 Y90.200 E72.08788
G0 F5400.00000 X109.239 Y91.013
;TYPE:SKIN
G1 F2250.000 X91.013 Y109.239 E73.12735
G0 X90.943 Y109.309
G0 F5400.000 X90.759 Y108.926
G1 F2250.000 X108.926 Y90.759 E74.16346
G0 X108.996 Y90.689
G0 F5400.000 X108.361 Y90.759
G1 F2250.000 X90.759 Y108.361 E75.16734
G0 X90.689 Y108.431
G0 F5400.000 X90.759 Y107.795
G1 F2250.000 X107.795 Y90.759 E76.13894
G0 X107.865 Y90.689
G0 F5400.000 X107.229 Y90.759
G1 F2250.000 X90.759 Y107.229 E77.07826
G0 X90.689 Y107.299
G0 F5400.000 X90.759 Y106.664
G1 F2250.000 X106.664 Y90.759 E77.98536
G0 X106.734 Y90.689
G0 F5400.000 X106.098 Y90.759
G1 F2250.000 X90.759 Y106.098 E78.86018
G0 X90.689 Y106.168
G0 F5400.000 X90.759 Y105.532
G1 F2250.000 X105.532 Y90.759 E79.70272
G0 X105.602 Y90.689
G0 F5400.000 X104.967 Y90.759
G1 F2250.000 X90.759 Y104.967 E80.51303
G0 X90.689 Y105.037
G0 F5400.000 X90.759 Y104.401
G1 F2250.000 X104.401 Y90.759 E81.29107
G0 X104.471 Y90.689
G0 F5400.000 X103.835 Y90.759
G1 F2250.000 X90.759 Y103.835 E82.03682
G0 X90.689 Y103.905
G0 F5400.000 X90.759 Y103.270
G1 F2250.000 X103.270 Y90.759 E82.75035
G0 X103.340 Y90.689
G0 F5400.000 X102.704 Y90.759
G1 F2250.000 X90.759 Y102.704 E83.43160
G0 X90.689 Y102.774
G0 F5400.000 X90.759 Y102.138
G1 F2250.000 X102.138 Y90.759 E84.08057
G0 X102.208 Y90.689
G0 F5400.000 X101.573 Y90.759
G1 F2250.000 X90.759 Y101.573 E84.69732
G0 X90.689 Y101.643
G0 F5400.000 X90.759 Y101.007
G1 F2250.000 X101.007 Y90.759 E85.28179
G0 X101.077 Y90.689
G0 F5400.000 X100.441 Y90.759
G1 F2250.000 X90.759 Y100.441 E85.83397
G0 X90.689 Y100.511
G0 F5400.000 X90.759 Y99.876
G1 F2250.000 X99.876 Y90.759 E86.35394
G0 X99.946 Y90.689
G0 F5400.000 X99.310 Y90.759
G1 F2250.000 X90.759 Y99.310 E86.84162
G0 X90.689 Y99.380
G0 F5400.000 X90.759 Y98.744
G1 F2250.000 X98.744 Y90.759 E87.29702
G0 X98.814 Y90.689
G0 F5400.000 X98.178 Y90.759
G1 F2250.000 X90.759 Y98.178 E87.72015
G0 X90.689 Y98.248
G0 F5400.000 X90.759 Y97.613
G1 F2250.000 X97.613 Y90.759 E88.11104
G0 X97.683 Y90.689
G0 F5400.000 X97.047 Y90.759
G1 F2250.000 X90.759 Y97.047 E88.46966
G0 X90.689 Y97.117
G0 F5400.000 X90.759 Y96.481
G1 F2250.000 X96.481 Y90.759 E88.79600
G0 X96.551 Y90.689
G0 F5400.000 X95.916 Y90.759
G1 F2250.000 X90.759 Y95.916 E89.09012
G0 X90.689 Y95.986
G0 F5400.000 X90.759 Y95.350
G1 F2250.000 X95.350 Y90.759 E89.35195
G0 X95.420 Y90.689
G0 F5400.000 X94.784 Y90.759
G1 F2250.000 X90.759 Y94.784 E89.58151
G0 X90.689 Y94.854
G0 F5400.000 X90.759 Y94.219
G1 F2250.000 X94.219 Y90.759 E89.77884
G0 X94.289 Y90.689
G0 F5400.000 X93.653 Y90.759
G1 F2250.000 X90.759 Y93.653 E89.94389
G0 X90.689 Y93.723
G0 F5400.000 X90.759 Y93.087
G1 F2250.000 X93.087 Y90.759 E90.07666
G0 X93.157 Y90.689
G0 F5400.000 X92.522 Y90.759
G1 F2250.000 X90.759 Y92.522 E90.17721
G0 X90.689 Y92.592
G0 F5400.000 X90.759 Y91.956
G1 F2250.000 X91.956 Y90.759 E90.24548
G0 X92.026 Y90.689
G0 F5400.000 X91.390 Y90.759
G1 F2250.000 X90.759 Y91.390 E90.28147
G0 X90.689 Y91.460
G0 F5400.000 X90.759 Y90.825
G1 F2250.000 X90.825 Y90.759 E90.28523
G0 F5400.00000 X109.239 Y91.578
G1 F2250.000 X91.578 Y109.239 E91.29248
G0 X91.508 Y109.309
G0 F5400.000 X92.144 Y109.239
G1 F2250.000 X109.239 Y92.144 E92.26744
G0 X109.309 Y92.074
G0 F5400.000 X109.239 Y92.710
G1 F2250.000 X92.710 Y109.239 E93.21013
G0 X92.640 Y109.309
G0 F5400.000 X93.275 Y109.239
G1 F2250.000 X109.239 Y93.275 E94.12059
G0 X109.309 Y93.205
