;FLAVOR:RepRap
;TIME:3916
M190 S60.000000
M104 S205.000000
M109 S205.000000
G21 ;metric values
G90 ;absolute positioning
M82 ;set extruder to absolute mode
M107 ;start with the fan off
G28 X0 Y0 ;move X/Y to min endstops
G28 Z0 ;move Z to min endstops
G1 Z15.0 F9000 ;move the platform down 15mm
G92 E0 ;zero the extruded length
G1 F200 E3 ;extrude 3mm of feed stock
G92 E0 ;zero the extruded length again
G1 F9000
;Put printing message on LCD screen
M117 Printing...
;Generated with Cura_SteamEngine 2.1.3
;LAYER_COUNT:198
;LAYER:0
M107
G1 F900.000000 E-6.50000
G0 F5400.00000 X123.244 Y114.360 Z0.300
;TYPE:SKIRT
G1 F900.000 E0.00000
G1 F1800.00000 X123.735 Y113.905 E0.03340
G1 X124.276 Y113.511 E0.06679
G1 X124.860 Y113.185 E0.10015
G1 X125.479 Y112.931 E0.13354
G1 X126.123 Y112.752 E0.16688
G1 X126.785 Y112.652 E0.20028
G1 X127.454 Y112.631 E0.23368
G1 X128.120 Y112.690 E0.26703
G1 X128.775 Y112.829 E0.30044
G1 X129.408 Y113.044 E0.33379
G1 X130.092 Y113.379 E0.37179
G1 X133.100 Y115.115 E0.54506
G1 X133.659 Y115.483 E0.57845
G1 X134.169 Y115.916 E0.61183
G1 X134.624 Y116.406 E0.64519
G1 X135.018 Y116.947 E0.67858
G1 X135.344 Y117.531 E0.71194
G1 X135.599 Y118.150 E0.74534
G1 X135.777 Y118.794 E0.77868
G1 X135.878 Y119.456 E0.81209
G1 X135.899 Y120.125 E0.84548
G1 X135.840 Y120.791 E0.87884
G1 X135.702 Y121.446 E0.91223
G1 X135.487 Y122.079 E0.94559
G1 X135.271 Y122.545 E0.97121
G1 X135.070 Y122.921 E0.99248
G1 X134.383 Y124.103 E1.06069
G1 X134.287 Y124.255 E1.06966
G1 X133.896 Y124.799 E1.10308
G1 X133.444 Y125.292 E1.13645
G1 X132.936 Y125.727 E1.16982
G1 X132.380 Y126.099 E1.20319
G1 X131.783 Y126.401 E1.23657
G1 X131.155 Y126.631 E1.26994
G1 X130.503 Y126.784 E1.30335
G1 X129.838 Y126.858 E1.33673
G1 X129.169 Y126.852 E1.37011
G1 X128.506 Y126.766 E1.40346
G1 X127.857 Y126.602 E1.43686
G1 X127.233 Y126.362 E1.47021
G1 X126.752 Y126.115 E1.49719
G1 X123.743 Y124.378 E1.67053
G1 X123.185 Y124.009 E1.70390
G1 X122.674 Y123.577 E1.73729
G1 X122.219 Y123.087 E1.77065
G1 X121.826 Y122.546 E1.80401
G1 X121.499 Y121.962 E1.83740
G1 X121.245 Y121.343 E1.87078
G1 X121.067 Y120.698 E1.90416
G1 X120.966 Y120.037 E1.93752
G1 X120.945 Y119.368 E1.97091
G1 X121.004 Y118.701 E2.00432
G1 X121.142 Y118.047 E2.03767
G1 X121.358 Y117.413 E2.07108
G1 X121.693 Y116.728 E2.10913
G1 X122.443 Y115.429 E2.18396
G1 X122.812 Y114.871 E2.21734
G1 X123.244 Y114.360 E2.25072
G0 F5400.00000 X123.566 Y114.603
G1 F1800.000 X124.043 Y114.169 E2.28289
G1 X124.571 Y113.799 E2.31506
G1 X125.140 Y113.496 E2.34722
G1 X125.742 Y113.266 E2.37937
G1 X126.368 Y113.112 E2.41153
G1 X127.008 Y113.037 E2.44368
G1 X127.653 Y113.041 E2.47586
G1 X128.292 Y113.126 E2.50802
G1 X128.916 Y113.289 E2.54020
G1 X129.515 Y113.528 E2.57237
G1 X129.892 Y113.725 E2.59360
G1 X132.900 Y115.461 E2.76686
G1 X133.438 Y115.817 E2.79905
G1 X133.927 Y116.237 E2.83121
G1 X134.360 Y116.715 E2.86339
G1 X134.731 Y117.242 E2.89554
G1 X135.034 Y117.811 E2.92770
G1 X135.264 Y118.413 E2.95985
G1 X135.418 Y119.039 E2.99202
G1 X135.493 Y119.680 E3.02421
G1 X135.489 Y120.324 E3.05634
G1 X135.404 Y120.963 E3.08850
G1 X135.242 Y121.587 E3.12067
G1 X134.916 Y122.360 E3.16252
G1 X134.723 Y122.721 E3.18294
G1 X134.045 Y123.890 E3.25037
G1 X133.949 Y124.042 E3.25933
G1 X133.571 Y124.564 E3.29149
G1 X133.132 Y125.036 E3.32365
G1 X132.638 Y125.450 E3.35580
G1 X132.096 Y125.800 E3.38799
G1 X131.516 Y126.080 E3.42012
G1 X130.905 Y126.286 E3.45229
G1 X130.273 Y126.415 E3.48447
G1 X129.630 Y126.464 E3.51665
G1 X128.986 Y126.434 E3.54881
G1 X128.351 Y126.324 E3.58096
G1 X127.734 Y126.137 E3.61313
G1 X126.952 Y125.768 E3.65627
G1 X123.943 Y124.031 E3.82960
G1 X123.406 Y123.675 E3.86175
G1 X122.917 Y123.255 E3.89391
G1 X122.484 Y122.778 E3.92605
G1 X122.113 Y122.251 E3.95820
G1 X121.810 Y121.681 E3.99041
G1 X121.580 Y121.079 E4.02256
G1 X121.426 Y120.453 E4.05472
G1 X121.351 Y119.813 E4.08687
G1 X121.355 Y119.168 E4.11905
G1 X121.440 Y118.529 E4.15121
G1 X121.603 Y117.905 E4.18339
G1 X121.841 Y117.307 E4.21550
G1 X122.040 Y116.928 E4.23685
G1 X122.790 Y115.629 E4.31169
G1 X123.146 Y115.092 E4.34383
G1 X123.566 Y114.603 E4.37599
G0 F5400.00000 X122.375 Y111.436
G1 F1800.000 X121.739 Y111.644 E4.40937
G1 X121.083 Y111.774 E4.44274
G1 X120.322 Y111.826 E4.48079
G1 X118.822 Y111.826 E4.55563
G1 X118.154 Y111.786 E4.58901
G1 X117.496 Y111.667 E4.62237
G1 X117.216 Y111.581 E4.63699
G1 X117.074 Y111.895 E4.65418
G1 X115.768 Y114.233 E4.78779
G1 X115.834 Y114.293 E4.79224
G1 X116.274 Y114.796 E4.82558
G1 X116.700 Y115.429 E4.86365
G1 X117.450 Y116.728 E4.93848
G1 X117.749 Y117.326 E4.97183
G1 X117.975 Y117.956 E5.00523
G1 X118.124 Y118.608 E5.03859
G1 X118.194 Y119.274 E5.07200
G1 X118.185 Y119.943 E5.10538
G1 X118.095 Y120.606 E5.13876
G1 X117.928 Y121.253 E5.17210
G1 X117.684 Y121.876 E5.20548
G1 X117.368 Y122.466 E5.23887
G1 X116.983 Y123.013 E5.27224
G1 X116.536 Y123.511 E5.30563
G1 X116.033 Y123.952 E5.33900
G1 X115.399 Y124.378 E5.37711
G1 X112.391 Y126.114 E5.55038
G1 X111.793 Y126.413 E5.58374
G1 X111.163 Y126.639 E5.61713
G1 X110.511 Y126.788 E5.65050
G1 X109.845 Y126.858 E5.68391
G1 X109.176 Y126.849 E5.71728
G1 X108.513 Y126.759 E5.75067
G1 X107.866 Y126.591 E5.78401
G1 X107.243 Y126.347 E5.81740
G1 X106.653 Y126.031 E5.85079
G1 X106.106 Y125.647 E5.88413
G1 X105.608 Y125.200 E5.91752
G1 X105.167 Y124.696 E5.95093
G1 X105.046 Y124.523 E5.96146
G1 X104.863 Y124.636 E5.97219
G1 X104.015 Y125.063 E6.01956
G1 X100.514 Y126.470 E6.20780
G1 X99.606 Y126.748 E6.25518
G1 X95.917 Y127.543 E6.44345
G1 X94.974 Y127.664 E6.49088
G1 X91.204 Y127.824 E6.67913
G1 X90.256 Y127.784 E6.72647
G1 X86.512 Y127.305 E6.91478
G1 X85.583 Y127.105 E6.96219
G1 X81.975 Y126.000 E7.15045
G1 X81.094 Y125.645 E7.19784
G1 X77.724 Y123.946 E7.38613
G1 X76.915 Y123.448 E7.43352
G1 X73.881 Y121.204 E7.62179
G1 X73.168 Y120.576 E7.66919
G1 X70.557 Y117.851 E7.85748
G1 X69.961 Y117.114 E7.90477
G1 X67.847 Y113.988 E8.09304
G1 X67.383 Y113.157 E8.14052
G1 X65.829 Y109.718 E8.32880
G1 X65.513 Y108.823 E8.37615
G1 X64.562 Y105.171 E8.56443
G1 X64.401 Y104.235 E8.61181
G1 X64.081 Y100.475 E8.80007
G1 X64.081 Y99.525 E8.84747
G1 X64.401 Y95.765 E9.03573
G1 X64.562 Y94.829 E9.08312
G1 X65.513 Y91.177 E9.27139
G1 X65.829 Y90.282 E9.31875
G1 X67.383 Y86.843 E9.50702
G1 X67.847 Y86.012 E9.55451
G1 X69.961 Y82.886 E9.74278
G1 X70.557 Y82.149 E9.79006
G1 X73.168 Y79.424 E9.97835
G1 X73.881 Y78.796 E10.02575
G1 X76.915 Y76.552 E10.21402
G1 X77.724 Y76.054 E10.26142
G1 X81.094 Y74.355 E10.44971
G1 X81.975 Y74.000 E10.49709
G1 X85.583 Y72.895 E10.68535
G1 X86.512 Y72.695 E10.73276
G1 X90.256 Y72.216 E10.92107
G1 X91.204 Y72.176 E10.96841
G1 X94.974 Y72.336 E11.15666
G1 X95.917 Y72.457 E11.20410
G1 X99.606 Y73.252 E11.39237
G1 X100.514 Y73.530 E11.43974
G1 X104.015 Y74.937 E11.62799
G1 X104.863 Y75.364 E11.67535
G1 X108.077 Y77.343 E11.86366
G1 X108.840 Y77.908 E11.91103
G1 X111.673 Y80.401 E12.09930
G1 X112.331 Y81.088 E12.14676
G1 X114.701 Y84.024 E12.33500
G1 X115.233 Y84.810 E12.38235
G1 X117.074 Y88.105 E12.57066
G1 X117.465 Y88.971 E12.61807
G1 X118.722 Y92.529 E12.80633
G1 X118.961 Y93.447 E12.85365
G1 X119.595 Y97.146 E13.04089
G1 X120.331 Y97.148 E13.07761
G1 X120.510 Y97.154 E13.08654
G1 X121.176 Y97.216 E13.11991
G1 X121.830 Y97.358 E13.15330
G1 X122.462 Y97.576 E13.18666
G1 X123.064 Y97.868 E13.22004
G1 X123.627 Y98.230 E13.25343
G1 X124.142 Y98.656 E13.28677
G1 X124.603 Y99.141 E13.32016
G1 X125.003 Y99.678 E13.35356
G1 X125.336 Y100.258 E13.38693
G1 X125.598 Y100.874 E13.42033
G1 X125.784 Y101.516 E13.45367
G1 X125.892 Y102.176 E13.48704
G1 X125.922 Y102.751 E13.51576
G1 X125.922 Y106.226 E13.68913
G1 X125.882 Y106.894 E13.72252
G1 X125.763 Y107.552 E13.75588
G1 X125.566 Y108.192 E13.78929
G1 X125.294 Y108.803 E13.82266
G1 X124.951 Y109.377 E13.85602
G1 X124.542 Y109.907 E13.88941
G1 X124.073 Y110.384 E13.92279
G1 X123.551 Y110.802 E13.95615
G1 X122.982 Y111.154 E13.98953
G1 X122.375 Y111.436 E14.02292
G0 F5400.00000 X122.008 Y111.145
G1 F1800.000 X121.387 Y111.316 E14.05506
G1 X120.749 Y111.408 E14.08722
G1 X120.322 Y111.426 E14.10854
G1 X118.822 Y111.426 E14.18338
G1 X118.179 Y111.386 E14.21552
G1 X117.545 Y111.267 E14.24770
G1 X116.999 Y111.092 E14.27631
G1 X116.724 Y111.700 E14.30960
G1 X115.266 Y114.309 E14.45871
G1 X115.267 Y114.309 E14.45876
G1 X115.726 Y114.762 E14.49093
G1 X116.125 Y115.269 E14.52312
G1 X116.353 Y115.629 E14.54438
G1 X117.103 Y116.928 E14.61921
G1 X117.390 Y117.505 E14.65136
G1 X117.604 Y118.113 E14.68352
G1 X117.740 Y118.743 E14.71567
G1 X117.798 Y119.386 E14.74788
G1 X117.776 Y120.030 E14.78003
G1 X117.674 Y120.666 E14.81217
G1 X117.494 Y121.286 E14.84438
G1 X117.239 Y121.878 E14.87654
G1 X116.913 Y122.434 E14.90869
G1 X116.520 Y122.945 E14.94085
G1 X116.067 Y123.404 E14.97303
G1 X115.561 Y123.803 E15.00518
G1 X115.199 Y124.032 E15.02655
G1 X112.191 Y125.768 E15.19981
G1 X111.614 Y126.055 E15.23197
G1 X111.006 Y126.268 E15.26411
G1 X110.376 Y126.405 E15.29627
G1 X109.733 Y126.462 E15.32848
G1 X109.089 Y126.440 E15.36063
G1 X108.453 Y126.338 E15.39276
G1 X107.834 Y126.158 E15.42492
G1 X107.242 Y125.902 E15.45710
G1 X106.686 Y125.576 E15.48926
G1 X106.174 Y125.183 E15.52146
G1 X105.716 Y124.730 E15.55360
G1 X105.199 Y124.046 E15.59637
G1 X105.160 Y123.983 E15.60007
G1 X104.653 Y124.295 E15.62977
G1 X103.866 Y124.692 E15.67374
G1 X100.365 Y126.099 E15.86199
G1 X99.521 Y126.357 E15.90602
G1 X95.832 Y127.152 E16.09429
G1 X94.957 Y127.264 E16.13830
G1 X91.187 Y127.424 E16.32655
G1 X90.307 Y127.387 E16.37050
G1 X86.563 Y126.908 E16.55881
G1 X85.700 Y126.722 E16.60285
G1 X82.092 Y125.617 E16.79111
G1 X81.274 Y125.288 E16.83510
G1 X77.904 Y123.589 E17.02338
G1 X77.153 Y123.127 E17.06737
G1 X74.119 Y120.883 E17.25564
G1 X73.456 Y120.300 E17.29969
G1 X70.845 Y117.575 E17.48797
G1 X70.293 Y116.890 E17.53186
G1 X68.179 Y113.764 E17.72014
G1 X67.747 Y112.992 E17.76427
G1 X66.193 Y109.553 E17.95255
G1 X65.900 Y108.722 E17.99651
G1 X64.949 Y105.070 E18.18478
G1 X64.800 Y104.201 E18.22877
G1 X64.480 Y100.441 E18.41704
G1 X64.480 Y99.559 E18.46104
G1 X64.800 Y95.799 E18.64930
G1 X64.949 Y94.930 E18.69329
G1 X65.900 Y91.278 E18.88157
G1 X66.193 Y90.447 E18.92553
G1 X67.747 Y87.008 E19.11380
G1 X68.179 Y86.236 E19.15794
G1 X70.293 Y83.110 E19.34621
G1 X70.845 Y82.425 E19.39010
G1 X73.456 Y79.700 E19.57838
G1 X74.119 Y79.117 E19.62243
G1 X77.153 Y76.873 E19.81070
G1 X77.904 Y76.411 E19.85469
G1 X81.274 Y74.712 E20.04298
G1 X82.092 Y74.383 E20.08697
G1 X85.700 Y73.278 E20.27522
G1 X86.563 Y73.092 E20.31927
G1 X90.307 Y72.613 E20.50758
G1 X91.187 Y72.576 E20.55152
G1 X94.957 Y72.736 E20.73978
G1 X95.832 Y72.848 E20.78379
G1 X99.521 Y73.643 E20.97206
G1 X100.365 Y73.901 E21.01609
G1 X103.866 Y75.308 E21.20433
G1 X104.653 Y75.705 E21.24831
G1 X107.867 Y77.684 E21.43661
G1 X108.576 Y78.208 E21.48060
G1 X111.409 Y80.701 E21.66887
G1 X112.020 Y81.339 E21.71294
G1 X114.390 Y84.275 E21.90119
G1 X114.883 Y85.005 E21.94513
G1 X116.724 Y88.300 E22.13344
G1 X117.088 Y89.104 E22.17747
G1 X118.345 Y92.662 E22.36573
G1 X118.567 Y93.515 E22.40971
G1 X119.205 Y97.235 E22.59801
G1 X119.231 Y97.545 E22.61353
G1 X120.317 Y97.548 E22.66771
G1 X120.496 Y97.554 E22.67664
G1 X121.138 Y97.615 E22.70882
G1 X121.767 Y97.756 E22.74098
G1 X122.374 Y97.973 E22.77314
G1 X122.950 Y98.264 E22.80533
G1 X123.485 Y98.623 E22.83748
G1 X123.971 Y99.046 E22.86962
G1 X124.401 Y99.526 E22.90177
G1 X124.769 Y100.056 E22.93396
G1 X125.068 Y100.627 E22.96612
G1 X125.295 Y101.230 E22.99827
G1 X125.445 Y101.857 E23.03043
G1 X125.522 Y102.751 E23.07520
G1 X125.522 Y106.226 E23.24856
G1 X125.482 Y106.869 E23.28071
G1 X125.363 Y107.503 E23.31289
G1 X125.166 Y108.117 E23.34506
G1 X124.895 Y108.702 E23.37722
G1 X124.553 Y109.249 E23.40941
G1 X124.147 Y109.749 E23.44154
G1 X123.682 Y110.195 E23.47369
G1 X123.165 Y110.580 E23.50585
G1 X122.604 Y110.899 E23.53804
G1 X122.008 Y111.145 E23.57021
G1 F900.00000 E17.07021
G0 F5400.00000 X114.104 Y108.353
G0 X112.087 Y107.641
G0 X112.050 Y107.627
G0 X111.545 Y108.876
G0 X111.636 Y108.917
;TYPE:WALL-INNER
G1 F900.000 E23.57021
G1 F1800.00000 X109.844 Y112.123 E23.75345
G1 X107.536 Y114.981 E23.93672
G1 X104.785 Y117.403 E24.11959
G1 X101.657 Y119.328 E24.30283
G1 X98.250 Y120.698 E24.48603
G1 X94.656 Y121.472 E24.66945
G1 X90.990 Y121.627 E24.85251
G1 X87.356 Y121.163 E25.03528
G1 X83.840 Y120.087 E25.21872
G1 X80.559 Y118.432 E25.40206
G1 X77.606 Y116.249 E25.58527
G1 X75.070 Y113.601 E25.76819
G1 X73.012 Y110.558 E25.95147
G1 X71.500 Y107.211 E26.13470
G1 X70.574 Y103.658 E26.31788
G1 X70.262 Y100.000 E26.50104
G1 X70.574 Y96.342 E26.68420
G1 X71.500 Y92.789 E26.86738
G1 X73.012 Y89.442 E27.05061
G1 X75.070 Y86.399 E27.23389
G1 X77.606 Y83.751 E27.41681
G1 X80.559 Y81.568 E27.60002
G1 X83.840 Y79.913 E27.78336
G1 X87.356 Y78.837 E27.96680
G1 X90.990 Y78.373 E28.14958
G1 X94.656 Y78.528 E28.33264
G1 X98.250 Y79.302 E28.51605
G1 X101.657 Y80.672 E28.69926
G1 X104.785 Y82.597 E28.88250
G1 X107.536 Y85.019 E29.06536
G1 X109.844 Y87.877 E29.24863
G1 X111.636 Y91.083 E29.43187
G1 X112.859 Y94.547 E29.61514
G1 X113.480 Y98.167 E29.79838
G1 X113.480 Y101.833 E29.98128
G1 X112.859 Y105.453 E30.16452
G1 X111.636 Y108.917 E30.34780
G0 F5400.00000 X112.002 Y109.081
;TYPE:WALL-OUTER
G1 F1800.000 X110.177 Y112.347 E30.53445
G1 X107.826 Y115.259 E30.72117
G1 X105.022 Y117.727 E30.90753
G1 X101.840 Y119.686 E31.09396
G1 X98.366 Y121.082 E31.28074
G1 X94.710 Y121.870 E31.46733
G1 X90.972 Y122.028 E31.65399
G1 X87.267 Y121.554 E31.84034
G1 X83.692 Y120.460 E32.02686
G1 X80.350 Y118.774 E32.21361
G1 X77.340 Y116.549 E32.40035
G1 X74.759 Y113.855 E32.58648
G1 X72.659 Y110.750 E32.77350
G1 X71.123 Y107.349 E32.95967
G1 X70.178 Y103.723 E33.14662
G1 X69.861 Y100.000 E33.33303
G1 X70.178 Y96.277 E33.51945
G1 X71.123 Y92.651 E33.70639
G1 X72.659 Y89.250 E33.89257
G1 X74.759 Y86.145 E34.07958
G1 X77.340 Y83.451 E34.26571
G1 X80.350 Y81.226 E34.45246
G1 X83.692 Y79.540 E34.63921
G1 X87.267 Y78.446 E34.82573
G1 X90.972 Y77.972 E35.01208
G1 X94.710 Y78.130 E35.19873
G1 X98.366 Y78.918 E35.38532
G1 X101.840 Y80.314 E35.57211
G1 X105.022 Y82.273 E35.75853
G1 X107.826 Y84.741 E35.94490
G1 X110.177 Y87.653 E36.13161
G1 X112.002 Y90.919 E36.31827
G1 X113.248 Y94.448 E36.50498
G1 X113.880 Y98.131 E36.69141
G1 X113.880 Y101.869 E36.87790
G1 X113.248 Y105.552 E37.06433
G1 X112.002 Y109.081 E37.25105
G0 F5400.00000 X111.539 Y108.710
;TYPE:SKIN
G1 F1800.000 X83.229 Y80.400 E39.24847
G0 X83.159 Y80.330
G0 F5400.000 X83.605 Y80.211
G1 F1800.000 X111.686 Y108.292 E41.22974
G0 X111.756 Y108.362
G0 F5400.000 X111.834 Y107.874
G1 F1800.000 X83.993 Y80.033 E43.19407
G0 X83.923 Y79.963
G0 F5400.000 X84.426 Y79.900
G1 F1800.000 X111.981 Y107.456 E45.13826
G0 X112.051 Y107.526
G0 F5400.000 X112.129 Y107.038
G1 F1800.000 X84.859 Y79.768 E47.06231
G0 X84.789 Y79.698
G0 F5400.000 X85.292 Y79.635
G1 F1800.000 X112.277 Y106.620 E48.96624
G0 X112.347 Y106.690
G0 F5400.000 X112.424 Y106.201
G1 F1800.000 X85.726 Y79.503 E50.84993
G0 X85.656 Y79.433
G0 F5400.000 X86.159 Y79.371
G1 F1800.000 X112.572 Y105.783 E52.71348
G0 X112.642 Y105.853
G0 F5400.000 X112.712 Y105.358
G1 F1800.000 X86.592 Y79.238 E54.55638
G0 X86.522 Y79.168
G0 F5400.000 X87.025 Y79.106
G1 F1800.000 X112.795 Y104.875 E56.37456
G0 X112.865 Y104.945
G0 F5400.000 X112.878 Y104.393
G1 F1800.000 X87.469 Y78.983 E58.16734
G0 X87.399 Y78.913
G0 F5400.000 X87.971 Y78.920
G1 F1800.000 X112.961 Y103.910 E59.93052
G0 X113.031 Y103.980
G0 F5400.000 X113.043 Y103.427
G1 F1800.000 X88.472 Y78.855 E61.66417
G0 X88.402 Y78.785
G0 F5400.000 X88.974 Y78.792
G1 F1800.000 X113.127 Y102.944 E63.36826
G0 X113.197 Y103.014
G0 F5400.000 X113.209 Y102.461
G1 F1800.000 X89.475 Y78.727 E65.04282
G0 X89.405 Y78.657
G0 F5400.000 X89.977 Y78.664
G1 F1800.000 X113.292 Y101.978 E66.68779
G0 X113.362 Y102.048
G0 F5400.000 X113.319 Y101.440
G1 F1800.000 X90.479 Y78.599 E68.29931
G0 X90.409 Y78.529
G0 F5400.000 X90.981 Y78.536
G1 F1800.000 X113.319 Y100.874 E69.87537
G0 X113.389 Y100.944
G0 F5400.000 X113.319 Y100.308
