;FLAVOR:RepRap
;TIME:8117
;Generated with Cura_SteamEngine 2.3.0
M80 ; power on ATX
G4  P1000 ; sleep 1 second
M140 S60 ; set the bed temperature and continue on
M104 S205.0 ; set the extruder temperature and continue on
G21 ;metric values
G91; relative positioning
G0 Z10; 10mm up
G90 ;absolute positioning
M82 ;set extruder to absolute mode
M107 ;start with the fan off
G28 X0 Y0 ;move X/Y to min endstops
G28 Z0 ;move Z to min endstops
G29 ;autobed
G1 Z15.0 F9000 ;move the platform down 15mm
M190 S60 ; set the bed temperature and wait
M109 S205.0; wait for the extruder temperature
G92 E0 ;zero the extruded length
G1 F200 E3 ;extrude 3mm of feed stock
G92 E0 ;zero the extruded length again
G1 F9000
M117 Imprimiendo...
;LAYER_COUNT:83
;LAYER:0
M107
G1 F900 E-6.5
G0 F5400 X72.461 Y105.213 Z.3
;TYPE:SKIRT
G1 F900 E0
G1 F1800 X72.736 Y105.041 E0.0157
G1 X74.368 Y104.085 E0.10723
G1 X74.702 Y103.905 E0.12559
G1 X78.307 Y102.109 E0.3205
G1 X78.674 Y101.942 E0.34001
G1 X81.363 Y100.836 E0.48072
G1 X81.618 Y100.738 E0.49394
G1 X83.461 Y100.083 E0.58859
G1 X83.823 Y99.968 E0.60698
G1 X87.636 Y98.898 E0.79863
G1 X88.027 Y98.804 E0.81809
G1 X90.907 Y98.215 E0.96035
G1 X91.173 Y98.167 E0.97343
G1 X93.087 Y97.871 E1.06715
G1 X93.469 Y97.825 E1.08577
G1 X97.485 Y97.484 E1.28082
G1 X97.807 Y97.466 E1.29643
G1 X99.689 Y97.415 E1.38754
G1 X100.067 Y97.418 E1.40583
G1 X104.027 Y97.578 E1.59763
G1 X104.35 Y97.6 E1.61329
G1 X106.258 Y97.788 E1.70608
G1 X106.635 Y97.838 E1.72448
G1 X110.577 Y98.499 E1.91791
G1 X110.976 Y98.581 E1.93762
G1 X113.884 Y99.289 E2.08246
G1 X114.146 Y99.36 E2.0956
G1 X115.973 Y99.9 E2.18779
G1 X116.333 Y100.019 E2.20614
G1 X120.049 Y101.397 E2.39794
G1 X120.345 Y101.517 E2.4134
G1 X122.097 Y102.283 E2.50593
G1 X122.443 Y102.448 E2.52448
G1 X125.995 Y104.3 E2.71834
G1 X126.278 Y104.458 E2.73402
G1 X127.917 Y105.437 E2.82641
G1 X128.237 Y105.644 E2.84486
G1 X131.526 Y107.926 E3.03858
G1 X131.783 Y108.115 E3.05402
G1 X133.272 Y109.279 E3.14548
G1 X133.564 Y109.524 E3.16393
G1 X136.515 Y112.173 E3.35583
G1 X136.748 Y112.395 E3.37141
G1 X138.116 Y113.773 E3.46538
G1 X138.33 Y114.001 E3.48051
G1 X140.287 Y116.206 E3.62318
G1 X140.513 Y116.477 E3.64026
G1 X142.335 Y118.811 E3.78355
G1 X142.58 Y119.15 E3.80379
G1 X144.773 Y122.439 E3.99509
G1 X144.945 Y122.714 E4.01079
G1 X145.914 Y124.367 E4.10352
G1 X146.095 Y124.702 E4.12194
G1 X147.891 Y128.307 E4.31685
G1 X148.058 Y128.674 E4.33637
G1 X149.164 Y131.363 E4.47707
G1 X149.261 Y131.617 E4.49023
G1 X149.916 Y133.459 E4.58484
G1 X150.032 Y133.822 E4.60328
G1 X151.102 Y137.636 E4.79498
G1 X151.196 Y138.027 E4.81444
G1 X151.785 Y140.907 E4.9567
G1 X151.833 Y141.173 E4.96978
G1 X152.129 Y143.086 E5.06346
G1 X152.175 Y143.468 E5.08208
G1 X152.516 Y147.485 E5.27717
G1 X152.534 Y147.807 E5.29278
G1 X152.585 Y149.688 E5.38384
G1 X152.582 Y150.066 E5.40214
G1 X152.422 Y154.027 E5.59398
G1 X152.4 Y154.35 E5.60965
G1 X152.212 Y156.258 E5.70243
G1 X152.162 Y156.635 E5.72083
G1 X151.501 Y160.577 E5.91426
G1 X151.419 Y160.976 E5.93398
G1 X150.711 Y163.884 E6.07882
G1 X150.64 Y164.146 E6.09195
G1 X150.1 Y165.973 E6.18415
G1 X149.981 Y166.333 E6.2025
G1 X148.603 Y170.049 E6.39429
G1 X148.483 Y170.345 E6.40975
G1 X147.717 Y172.097 E6.50228
G1 X147.552 Y172.443 E6.52084
G1 X145.7 Y175.995 E6.71469
G1 X145.542 Y176.278 E6.73038
G1 X144.563 Y177.917 E6.82277
G1 X144.356 Y178.237 E6.84121
G1 X142.074 Y181.526 E7.03493
G1 X141.885 Y181.783 E7.05037
G1 X140.721 Y183.272 E7.14184
G1 X140.476 Y183.564 E7.16028
G1 X137.827 Y186.515 E7.35219
G1 X137.605 Y186.748 E7.36776
G1 X136.227 Y188.116 E7.46173
G1 X135.999 Y188.33 E7.47686
G1 X133.794 Y190.287 E7.61954
G1 X133.523 Y190.513 E7.63661
G1 X131.189 Y192.335 E7.7799
G1 X130.849 Y192.581 E7.80021
G1 X127.539 Y194.787 E7.99271
G1 X127.264 Y194.959 E8.00841
G1 X125.632 Y195.915 E8.09994
G1 X125.298 Y196.095 E8.1183
G1 X121.693 Y197.891 E8.31321
G1 X121.326 Y198.058 E8.33272
G1 X118.637 Y199.164 E8.47343
G1 X118.382 Y199.262 E8.48665
G1 X116.539 Y199.917 E8.5813
G1 X116.177 Y200.032 E8.59969
G1 X112.364 Y201.102 E8.79134
G1 X111.973 Y201.196 E8.8108
G1 X109.093 Y201.785 E8.95306
G1 X108.827 Y201.833 E8.96614
G1 X106.913 Y202.129 E9.05986
G1 X106.531 Y202.175 E9.07848
G1 X102.515 Y202.516 E9.27353
G1 X102.193 Y202.534 E9.28914
G1 X100.311 Y202.585 E9.38025
G1 X99.933 Y202.582 E9.39854
G1 X95.973 Y202.422 E9.59034
G1 X95.65 Y202.4 E9.606
G1 X93.742 Y202.212 E9.69879
G1 X93.365 Y202.162 E9.71719
G1 X89.423 Y201.501 E9.91062
G1 X89.024 Y201.419 E9.93033
G1 X86.116 Y200.711 E10.07517
G1 X85.854 Y200.64 E10.08831
G1 X84.027 Y200.1 E10.1805
G1 X83.667 Y199.981 E10.19885
G1 X79.951 Y198.603 E10.39065
G1 X79.655 Y198.483 E10.40611
G1 X77.903 Y197.717 E10.49864
G1 X77.557 Y197.552 E10.51719
G1 X74.005 Y195.7 E10.71105
G1 X73.722 Y195.542 E10.72673
G1 X72.083 Y194.563 E10.81912
G1 X71.763 Y194.356 E10.83757
G1 X68.474 Y192.074 E11.03129
G1 X68.217 Y191.885 E11.04673
G1 X66.727 Y190.72 E11.13826
G1 X66.435 Y190.475 E11.15671
G1 X63.485 Y187.827 E11.34854
G1 X63.252 Y187.605 E11.36412
G1 X61.883 Y186.226 E11.45815
G1 X61.669 Y185.998 E11.47329
G1 X59.713 Y183.794 E11.61589
G1 X59.487 Y183.523 E11.63297
G1 X57.665 Y181.189 E11.77626
G1 X57.419 Y180.849 E11.79657
G1 X55.213 Y177.539 E11.98907
G1 X55.042 Y177.264 E12.00474
G1 X54.085 Y175.631 E12.09633
G1 X53.903 Y175.297 E12.11474
G1 X52.108 Y171.693 E12.30959
G1 X51.942 Y171.326 E12.32908
G1 X50.836 Y168.637 E12.46979
G1 X50.738 Y168.382 E12.48301
G1 X50.083 Y166.539 E12.57766
G1 X49.968 Y166.177 E12.59604
G1 X48.898 Y162.364 E12.78769
G1 X48.804 Y161.973 E12.80716
G1 X48.215 Y159.093 E12.94941
G1 X48.167 Y158.827 E12.96249
G1 X47.871 Y156.913 E13.05622
G1 X47.825 Y156.531 E13.07484
G1 X47.484 Y152.515 E13.26989
G1 X47.466 Y152.193 E13.2855
G1 X47.415 Y150.312 E13.37656
G1 X47.418 Y149.934 E13.39485
G1 X47.578 Y145.973 E13.58669
G1 X47.6 Y145.65 E13.60236
G1 X47.788 Y143.742 E13.69514
G1 X47.838 Y143.365 E13.71355
G1 X48.499 Y139.423 E13.90698
G1 X48.581 Y139.024 E13.92669
G1 X49.289 Y136.116 E14.07153
G1 X49.36 Y135.854 E14.08467
G1 X49.9 Y134.027 E14.17686
G1 X50.02 Y133.666 E14.19527
G1 X51.405 Y129.933 E14.38796
G1 X51.524 Y129.637 E14.4034
G1 X52.283 Y127.902 E14.49504
G1 X52.448 Y127.557 E14.51355
G1 X54.3 Y124.005 E14.7074
G1 X54.458 Y123.722 E14.72309
G1 X55.437 Y122.083 E14.81548
G1 X55.644 Y121.763 E14.83392
G1 X57.926 Y118.474 E15.02765
G1 X58.115 Y118.217 E15.04309
G1 X59.279 Y116.728 E15.13455
G1 X59.524 Y116.436 E15.15299
G1 X62.173 Y113.485 E15.3449
G1 X62.395 Y113.252 E15.36048
G1 X63.773 Y111.884 E15.45444
G1 X64.001 Y111.67 E15.46958
G1 X66.206 Y109.713 E15.61225
G1 X66.477 Y109.487 E15.62933
G1 X68.811 Y107.665 E15.77262
G1 X69.151 Y107.419 E15.79293
G1 X72.461 Y105.213 E15.98542
G0 F5400 X72.683 Y105.546
G1 F1800 X72.939 Y105.386 E16.00003
G1 X74.571 Y104.43 E16.09156
G1 X74.88 Y104.263 E16.10856
G1 X78.485 Y102.467 E16.30347
G1 X78.826 Y102.312 E16.3216
G1 X81.515 Y101.206 E16.46231
G1 X81.752 Y101.115 E16.47459
G1 X83.595 Y100.46 E16.56925
G1 X83.931 Y100.353 E16.58631
G1 X87.744 Y99.283 E16.77796
G1 X88.107 Y99.195 E16.79604
G1 X90.987 Y98.606 E16.9383
G1 X91.234 Y98.562 E16.95044
G1 X93.148 Y98.266 E17.04416
G1 X93.503 Y98.224 E17.06146
G1 X97.519 Y97.883 E17.25651
G1 X97.818 Y97.866 E17.271
G1 X99.7 Y97.815 E17.36211
G1 X100.051 Y97.817 E17.3791
G1 X104.011 Y97.977 E17.57089
G1 X104.311 Y97.998 E17.58545
G1 X106.219 Y98.186 E17.67823
G1 X106.569 Y98.233 E17.69532
G1 X110.511 Y98.894 E17.88875
G1 X110.881 Y98.97 E17.90703
G1 X113.789 Y99.678 E18.05187
G1 X114.033 Y99.743 E18.06409
G1 X115.86 Y100.283 E18.15628
G1 X116.194 Y100.394 E18.17332
G1 X119.91 Y101.772 E18.36511
G1 X120.185 Y101.883 E18.37947
G1 X121.937 Y102.649 E18.472
G1 X122.258 Y102.803 E18.48923
G1 X125.81 Y104.655 E18.68309
G1 X126.073 Y104.802 E18.69767
G1 X127.712 Y105.781 E18.79006
G1 X128.009 Y105.973 E18.80717
G1 X131.298 Y108.255 E19.0009
G1 X131.537 Y108.43 E19.01523
G1 X133.026 Y109.594 E19.10669
G1 X133.297 Y109.821 E19.1238
G1 X136.248 Y112.47 E19.31571
G1 X136.464 Y112.676 E19.33015
G1 X137.832 Y114.054 E19.42412
G1 X138.031 Y114.266 E19.43819
G1 X139.988 Y116.471 E19.58086
G1 X140.198 Y116.723 E19.59674
G1 X142.02 Y119.057 E19.74003
G1 X142.247 Y119.372 E19.75882
G1 X144.44 Y122.661 E19.95012
G1 X144.6 Y122.916 E19.96469
G1 X145.569 Y124.569 E20.05742
G1 X145.737 Y124.88 E20.07452
G1 X147.533 Y128.485 E20.26943
G1 X147.688 Y128.826 E20.28756
G1 X148.794 Y131.515 E20.42827
G1 X148.884 Y131.751 E20.44049
G1 X149.539 Y133.593 E20.5351
G1 X149.647 Y133.93 E20.55222
G1 X150.717 Y137.744 E20.74392
G1 X150.805 Y138.107 E20.762
G1 X151.394 Y140.987 E20.90426
G1 X151.438 Y141.234 E20.9164
G1 X151.734 Y143.147 E21.01008
G1 X151.776 Y143.502 E21.02738
G1 X152.117 Y147.519 E21.22247
G1 X152.134 Y147.818 E21.23697
G1 X152.185 Y149.699 E21.32803
G1 X152.183 Y150.05 E21.34501
G1 X152.023 Y154.011 E21.53686
G1 X152.002 Y154.311 E21.55141
G1 X151.814 Y156.219 E21.64419
G1 X151.767 Y156.569 E21.66128
G1 X151.106 Y160.511 E21.85471
G1 X151.03 Y160.881 E21.87299
G1 X150.322 Y163.789 E22.01783
G1 X150.257 Y164.033 E22.03005
G1 X149.717 Y165.86 E22.12225
G1 X149.606 Y166.194 E22.13928
G1 X148.228 Y169.91 E22.33108
G1 X148.117 Y170.185 E22.34543
G1 X147.351 Y171.937 E22.43796
G1 X147.197 Y172.258 E22.45519
G1 X145.345 Y175.81 E22.64905
G1 X145.198 Y176.073 E22.66363
G1 X144.219 Y177.712 E22.75602
G1 X144.027 Y178.009 E22.77313
G1 X141.745 Y181.298 E22.96686
G1 X141.57 Y181.537 E22.98119
G1 X140.406 Y183.026 E23.07266
G1 X140.179 Y183.297 E23.08976
G1 X137.53 Y186.248 E23.28167
G1 X137.324 Y186.464 E23.29611
G1 X135.946 Y187.832 E23.39008
G1 X135.734 Y188.031 E23.40415
G1 X133.529 Y189.988 E23.54683
G1 X133.277 Y190.198 E23.5627
G1 X130.943 Y192.02 E23.70599
G1 X130.627 Y192.248 E23.72485
G1 X127.317 Y194.454 E23.91735
G1 X127.061 Y194.614 E23.93196
G1 X125.429 Y195.57 E24.02349
G1 X125.12 Y195.737 E24.04048
G1 X121.515 Y197.533 E24.23539
G1 X121.174 Y197.688 E24.25352
G1 X118.485 Y198.794 E24.39423
G1 X118.248 Y198.885 E24.40652
G1 X116.405 Y199.54 E24.50117
G1 X116.069 Y199.647 E24.51823
G1 X112.256 Y200.717 E24.70989
G1 X111.893 Y200.805 E24.72796
G1 X109.013 Y201.394 E24.87022
G1 X108.766 Y201.438 E24.88236
G1 X106.852 Y201.734 E24.97609
G1 X106.497 Y201.776 E24.99339
G1 X102.481 Y202.117 E25.18843
G1 X102.182 Y202.134 E25.20293
G1 X100.3 Y202.185 E25.29404
G1 X99.949 Y202.183 E25.31102
G1 X95.989 Y202.023 E25.50282
G1 X95.689 Y202.002 E25.51737
G1 X93.781 Y201.814 E25.61015
G1 X93.431 Y201.767 E25.62724
G1 X89.489 Y201.106 E25.82067
G1 X89.119 Y201.03 E25.83895
G1 X86.211 Y200.322 E25.98379
G1 X85.967 Y200.257 E25.99601
G1 X84.14 Y199.717 E26.08821
G1 X83.806 Y199.606 E26.10524
G1 X80.09 Y198.228 E26.29704
G1 X79.815 Y198.117 E26.31139
G1 X78.063 Y197.351 E26.40392
G1 X77.742 Y197.197 E26.42115
G1 X74.19 Y195.345 E26.61501
G1 X73.927 Y195.198 E26.62959
G1 X72.288 Y194.219 E26.72198
G1 X71.991 Y194.027 E26.73909
G1 X68.702 Y191.745 E26.93282
G1 X68.463 Y191.569 E26.94718
G1 X66.973 Y190.404 E27.03871
G1 X66.702 Y190.178 E27.05579
G1 X63.752 Y187.53 E27.24763
G1 X63.536 Y187.324 E27.26207
G1 X62.167 Y185.945 E27.35611
G1 X61.968 Y185.733 E27.37018
G1 X60.012 Y183.529 E27.51279
G1 X59.802 Y183.277 E27.52866
G1 X57.98 Y180.943 E27.67195
G1 X57.752 Y180.627 E27.69081
G1 X55.546 Y177.317 E27.88331
G1 X55.387 Y177.062 E27.89785
G1 X54.43 Y175.429 E27.98945
G1 X54.261 Y175.118 E28.00658
G1 X52.466 Y171.514 E28.20142
G1 X52.312 Y171.174 E28.21948
G1 X51.206 Y168.485 E28.36019
G1 X51.115 Y168.248 E28.37248
G1 X50.46 Y166.405 E28.46713
G1 X50.353 Y166.069 E28.4842
G1 X49.283 Y162.256 E28.67585
G1 X49.195 Y161.893 E28.69392
G1 X48.606 Y159.013 E28.83618
G1 X48.562 Y158.766 E28.84832
G1 X48.266 Y156.852 E28.94205
G1 X48.224 Y156.497 E28.95935
G1 X47.883 Y152.481 E29.1544
G1 X47.866 Y152.182 E29.16889
G1 X47.815 Y150.301 E29.25995
G1 X47.817 Y149.95 E29.27694
G1 X47.977 Y145.989 E29.46878
G1 X47.998 Y145.689 E29.48333
G1 X48.186 Y143.781 E29.57612
G1 X48.233 Y143.431 E29.59321
G1 X48.894 Y139.489 E29.78664
G1 X48.97 Y139.119 E29.80492
G1 X49.678 Y136.211 E29.94975
G1 X49.743 Y135.967 E29.96197
G1 X50.283 Y134.14 E30.05417
G1 X50.395 Y133.805 E30.07126
G1 X51.78 Y130.072 E30.26395
G1 X51.891 Y129.797 E30.2783
G1 X52.65 Y128.062 E30.36995
G1 X52.803 Y127.742 E30.38711
G1 X54.655 Y124.19 E30.58097
G1 X54.802 Y123.927 E30.59555
G1 X55.781 Y122.288 E30.68794
G1 X55.973 Y121.991 E30.70505
G1 X58.255 Y118.702 E30.89878
G1 X58.43 Y118.463 E30.91311
G1 X59.594 Y116.974 E31.00458
G1 X59.821 Y116.703 E31.02168
G1 X62.47 Y113.752 E31.21359
G1 X62.676 Y113.536 E31.22803
G1 X64.054 Y112.168 E31.322
G1 X64.266 Y111.969 E31.33607
G1 X66.471 Y110.012 E31.47875
G1 X66.723 Y109.802 E31.49462
G1 X69.057 Y107.98 E31.63791
G1 X69.373 Y107.752 E31.65677
G1 X72.683 Y105.546 E31.84927
G1 F900 E25.34927
G0 F5400 X74.986 Y109.445
G0 X75.65 Y110.567
G0 X75.19 Y110.908
G0 X75.137 Y110.824
;TYPE:WALL-INNER
G1 F900 E31.84927
G1 F1800 X77.649 Y109.339 E31.99048
G1 X80.236 Y108.021 E32.13099
G1 X82.932 Y106.854 E32.27316
G1 X85.654 Y105.875 E32.41314
G1 X88.469 Y105.056 E32.55502
G1 X91.294 Y104.425 E32.6951
G1 X94.194 Y103.966 E32.83719
G1 X97.078 Y103.693 E32.97738
G1 X100 Y103.6 E33.11886
G1 X102.922 Y103.693 E33.26034
G1 X105.806 Y103.966 E33.40053
G1 X108.706 Y104.425 E33.54261
G1 X111.531 Y105.056 E33.68269
G1 X114.346 Y105.875 E33.82457
G1 X117.068 Y106.854 E33.96456
G1 X119.764 Y108.021 E34.10673
G1 X122.351 Y109.339 E34.24723
G1 X124.863 Y110.824 E34.38845
G1 X127.272 Y112.462 E34.52943
G1 X129.575 Y114.248 E34.67046
G1 X131.768 Y116.182 E34.81196
G1 X133.818 Y118.232 E34.95226
G1 X135.756 Y120.43 E35.09407
G1 X137.538 Y122.728 E35.2348
G1 X139.176 Y125.137 E35.37578
G1 X140.664 Y127.654 E35.51728
G1 X141.979 Y130.236 E35.6575
G1 X143.144 Y132.927 E35.79941
G1 X144.126 Y135.654 E35.93967
G1 X144.944 Y138.468 E36.08149
G1 X145.574 Y141.288 E36.22132
G1 X146.034 Y144.194 E36.36371
G1 X146.307 Y147.068 E36.50341
G1 X146.4 Y149.993 E36.64504
G1 X146.307 Y152.922 E36.78685
G1 X146.034 Y155.806 E36.92704
G1 X145.575 Y158.706 E37.06913
G1 X144.947 Y161.52 E37.20866
G1 X144.125 Y164.346 E37.35109
G1 X143.148 Y167.063 E37.49082
G1 X141.98 Y169.763 E37.63318
G1 X140.664 Y172.346 E37.77347
G1 X139.176 Y174.863 E37.91497
G1 X137.538 Y177.272 E38.05595
G1 X135.756 Y179.57 E38.19667
G1 X133.818 Y181.768 E38.33848
G1 X131.768 Y183.818 E38.47878
G1 X129.575 Y185.752 E38.62028
G1 X127.272 Y187.538 E38.76132
G1 X124.863 Y189.176 E38.9023
G1 X122.351 Y190.661 E39.04352
G1 X119.764 Y191.979 E39.18402
G1 X117.069 Y193.146 E39.32614
G1 X114.346 Y194.125 E39.46618
G1 X111.531 Y194.944 E39.60805
G1 X108.706 Y195.575 E39.74813
G1 X105.806 Y196.034 E39.89022
G1 X102.922 Y196.307 E40.03041
G1 X100 Y196.4 E40.17189
G1 X97.078 Y196.307 E40.31337
G1 X94.194 Y196.034 E40.45356
G1 X91.294 Y195.575 E40.59565
G1 X88.469 Y194.944 E40.73573
G1 X85.654 Y194.125 E40.8776
G1 X82.931 Y193.146 E41.01764
G1 X80.236 Y191.979 E41.15976
G1 X77.649 Y190.661 E41.30027
G1 X75.137 Y189.176 E41.44148
G1 X72.728 Y187.538 E41.58246
G1 X70.425 Y185.752 E41.7235
G1 X68.232 Y183.818 E41.865
G1 X66.182 Y181.768 E42.0053
G1 X64.244 Y179.57 E42.14711
G1 X62.462 Y177.272 E42.28783
G1 X60.824 Y174.863 E42.42881
G1 X59.336 Y172.346 E42.57031
G1 X58.02 Y169.763 E42.7106
G1 X56.852 Y167.063 E42.85296
G1 X55.875 Y164.346 E42.99269
G1 X55.053 Y161.52 E43.13512
G1 X54.425 Y158.706 E43.27465
G1 X53.966 Y155.806 E43.41674
G1 X53.693 Y152.922 E43.55693
G1 X53.6 Y150.006 E43.69811
G1 X53.693 Y147.068 E43.84037
G1 X53.966 Y144.194 E43.98008
G1 X54.426 Y141.288 E44.12246
G1 X55.053 Y138.48 E44.26169
G1 X55.874 Y135.654 E44.40411
G1 X56.856 Y132.927 E44.54437
G1 X58.021 Y130.236 E44.68628
G1 X59.336 Y127.654 E44.8265
G1 X60.824 Y125.137 E44.968
G1 X62.462 Y122.728 E45.10898
G1 X64.244 Y120.43 E45.24971
G1 X66.182 Y118.232 E45.39152
G1 X68.232 Y116.182 E45.53182
G1 X70.425 Y114.248 E45.67332
G1 X72.728 Y112.462 E45.81435
G1 X75.137 Y110.824 E45.95533
G0 F5400 X75.19 Y110.908
G0 X98.772 Y147.034
G0 X98.81 Y147.126
